;FLAVOR:Marlin
;TIME:3794
;Filament used: 2.358m
;Layer height: 0.2
;MINX:75.4
;MINY:66.85
;MINZ:0.2
;MAXX:144.6
;MAXY:153.15
;MAXZ:6.6
;TARGET_MACHINE.NAME:Creality Ender-3 Pro
;Generated with Cura_SteamEngine 5.6.0
M82 ;absolute extrusion mode
; Ender 3 Custom Start G-code
G92 E0 ; Reset Extruder
G28 ; Home all axes
G1 Z5.0 F3000 ; Move Z Axis up a bit during heating to not damage bed
M104 S175 ; Start heating up the nozzle most of the way
M190 S60 ; Start heating the bed, wait until target temperature reached
M109 S210 ; Finish heating the nozzle
G1 Z2.0 F3000 ; Move Z Axis up little to prevent scratching of Heat Bed
G1 X0.1 Y20 Z0.3 F5000.0 ; Move to start position
G1 X0.1 Y200.0 Z0.3 F1500.0 E15 ; Draw the first line
G1 X0.4 Y200.0 Z0.3 F5000.0 ; Move to side a little
G1 X0.4 Y20 Z0.3 F1500.0 E30 ; Draw the second line
G92 E0 ; Reset Extruder
G1 Z2.0 F3000 ; Move Z Axis up little to prevent scratching of Heat Bed
G1 X5 Y20 Z0.3 F5000.0 ; Move over to prevent blob squish
G92 E0
G92 E0
G1 F3000 E-6.5
;LAYER_COUNT:33
;LAYER:0
M107
G0 F6000 X78.043 Y70.466 Z0.2
;TYPE:SKIRT
G1 F3000 E0
G1 F1200 X78.718 Y69.765 E0.03399
G1 X79.427 Y69.15 E0.06676
G1 X80.159 Y68.62 E0.09832
G1 X80.995 Y68.121 E0.13233
G1 X81.84 Y67.714 E0.16508
G1 X82.719 Y67.383 E0.19788
G1 X83.622 Y67.132 E0.23061
G1 X84.55 Y66.96 E0.26357
G1 X85.689 Y66.864 E0.30349
G1 X86.321 Y66.85 E0.32557
G1 X133.298 Y66.85 E1.96615
G1 X134.16 Y66.862 E1.99626
G1 X135.097 Y66.918 E2.02904
G1 X136.025 Y67.057 E2.06181
G1 X136.938 Y67.278 E2.09462
G1 X137.794 Y67.566 E2.12616
G1 X138.686 Y67.956 E2.16016
G1 X139.507 Y68.409 E2.1929
G1 X140.258 Y68.911 E2.22445
G1 X141.017 Y69.523 E2.2585
G1 X141.691 Y70.176 E2.29127
G1 X142.305 Y70.885 E2.32403
G1 X142.855 Y71.646 E2.35682
G1 X143.317 Y72.422 E2.38836
G1 X143.74 Y73.299 E2.42236
G1 X144.069 Y74.177 E2.45511
G1 X144.32 Y75.082 E2.48791
G1 X144.491 Y76.009 E2.52083
G1 X144.586 Y77.139 E2.56043
G1 X144.6 Y77.78 E2.58282
G1 X144.599 Y141.945 E4.82366
G1 X144.589 Y142.69 E4.84968
G1 X144.535 Y143.627 E4.88246
G1 X144.397 Y144.556 E4.91526
G1 X144.178 Y145.468 E4.94802
G1 X143.88 Y146.358 E4.98079
G1 X143.503 Y147.218 E5.01359
G1 X143.053 Y148.04 E5.04631
G1 X142.531 Y148.821 E5.07912
G1 X141.942 Y149.551 E5.11188
G1 X141.317 Y150.202 E5.14339
G1 X140.582 Y150.843 E5.17745
G1 X139.822 Y151.393 E5.21022
G1 X139.016 Y151.874 E5.24299
G1 X138.171 Y152.282 E5.27576
G1 X137.293 Y152.613 E5.30853
G1 X136.389 Y152.866 E5.34132
G1 X135.462 Y153.038 E5.37424
G1 X134.311 Y153.136 E5.41459
G1 X133.67 Y153.15 E5.43698
G1 X119.555 Y153.149 E5.92992
G1 X118.847 Y153.139 E5.95465
G1 X118.258 Y153.113 E5.97523
G1 X117.223 Y153.039 E6.01147
G1 X116.312 Y152.96 E6.04341
G1 X113.829 Y152.819 E6.13026
G1 X111.265 Y152.746 E6.21984
G1 X108.753 Y152.746 E6.30757
G1 X106.217 Y152.817 E6.39617
G1 X103.654 Y152.961 E6.48582
G1 X101.827 Y153.107 E6.54982
G1 X101.286 Y153.137 E6.56875
G1 X100.67 Y153.15 E6.59026
G1 X86.57 Y153.149 E7.08268
G1 X85.854 Y153.139 E7.10769
G1 X84.918 Y153.085 E7.14043
G1 X83.989 Y152.946 E7.17323
G1 X83.077 Y152.727 E7.20599
G1 X82.187 Y152.428 E7.23878
G1 X81.328 Y152.051 E7.27154
G1 X80.505 Y151.6 E7.30431
G1 X79.725 Y151.078 E7.33709
G1 X79.021 Y150.512 E7.36864
G1 X78.319 Y149.837 E7.40265
G1 X77.704 Y149.128 E7.43543
G1 X77.174 Y148.397 E7.46696
G1 X76.674 Y147.561 E7.50098
G1 X76.266 Y146.716 E7.53375
G1 X75.935 Y145.838 E7.56652
G1 X75.683 Y144.934 E7.59929
G1 X75.511 Y144.005 E7.63229
G1 X75.413 Y142.826 E7.6736
G1 X75.4 Y142.208 E7.69519
G1 X75.401 Y77.981 E9.9382
G1 X75.411 Y77.298 E9.96205
G1 X75.466 Y76.361 E9.99483
G1 X75.605 Y75.433 E10.0276
G1 X75.825 Y74.521 E10.06037
G1 X76.125 Y73.631 E10.09317
G1 X76.502 Y72.772 E10.12593
G1 X76.953 Y71.95 E10.15867
G1 X77.476 Y71.17 E10.19147
G1 X78.043 Y70.466 E10.22304
G0 F6000 X78.355 Y70.717
G1 F1200 X78.981 Y70.067 E10.25455
G1 X79.662 Y69.474 E10.28609
G1 X80.394 Y68.944 E10.31765
G1 X81.169 Y68.481 E10.34918
G1 X81.982 Y68.088 E10.38071
G1 X82.827 Y67.768 E10.41227
G1 X83.696 Y67.525 E10.44378
G1 X84.584 Y67.359 E10.47533
G1 X85.723 Y67.263 E10.51525
G1 X86.33 Y67.25 E10.53645
G1 X133.293 Y67.25 E12.17655
G1 X134.137 Y67.261 E12.20602
G1 X135.039 Y67.314 E12.23758
G1 X135.932 Y67.446 E12.2691
G1 X136.81 Y67.657 E12.30064
G1 X137.666 Y67.945 E12.33218
G1 X138.493 Y68.307 E12.36371
G1 X139.285 Y68.742 E12.39526
G1 X140.036 Y69.244 E12.42681
G1 X140.739 Y69.811 E12.45835
G1 X141.389 Y70.438 E12.48989
G1 X141.981 Y71.12 E12.52143
G1 X142.511 Y71.851 E12.55296
G1 X142.973 Y72.627 E12.5845
G1 X143.366 Y73.44 E12.61604
G1 X143.684 Y74.285 E12.64757
G1 X143.927 Y75.155 E12.67912
G1 X144.092 Y76.043 E12.71066
G1 X144.187 Y77.173 E12.75026
G1 X144.2 Y77.78 E12.77146
G1 X144.199 Y141.94 E15.01213
G1 X144.19 Y142.667 E15.03752
G1 X144.139 Y143.569 E15.06907
G1 X144.008 Y144.463 E15.10063
G1 X143.799 Y145.341 E15.13215
G1 X143.513 Y146.198 E15.1637
G1 X143.152 Y147.026 E15.19525
G1 X142.72 Y147.818 E15.22675
G1 X142.219 Y148.57 E15.25831
G1 X141.653 Y149.274 E15.28985
G1 X141.028 Y149.925 E15.32137
G1 X140.347 Y150.519 E15.35293
G1 X139.616 Y151.05 E15.38448
G1 X138.842 Y151.514 E15.416
G1 X138.029 Y151.908 E15.44755
G1 X137.185 Y152.228 E15.47907
G1 X136.315 Y152.473 E15.51064
G1 X135.428 Y152.639 E15.54215
G1 X134.277 Y152.737 E15.58249
G1 X133.67 Y152.75 E15.6037
G1 X119.561 Y152.749 E16.09643
G1 X118.864 Y152.739 E16.12077
G1 X118.287 Y152.714 E16.14094
G1 X117.257 Y152.64 E16.177
G1 X116.346 Y152.562 E16.20894
G1 X113.84 Y152.419 E16.2966
G1 X111.276 Y152.346 E16.38618
G1 X108.742 Y152.346 E16.47467
G1 X106.206 Y152.417 E16.56327
G1 X103.622 Y152.562 E16.65365
G1 X101.805 Y152.708 E16.71731
G1 X101.277 Y152.737 E16.73578
G1 X100.67 Y152.75 E16.75698
G1 X86.575 Y152.749 E17.24923
G1 X85.877 Y152.74 E17.2736
G1 X84.976 Y152.689 E17.30512
G1 X84.082 Y152.557 E17.33668
G1 X83.204 Y152.348 E17.3682
G1 X82.347 Y152.061 E17.39976
G1 X81.52 Y151.7 E17.43128
G1 X80.727 Y151.267 E17.46283
G1 X79.976 Y150.766 E17.49436
G1 X79.272 Y150.2 E17.5259
G1 X78.621 Y149.574 E17.55744
G1 X78.028 Y148.893 E17.58898
G1 X77.498 Y148.162 E17.62051
G1 X77.034 Y147.387 E17.65206
G1 X76.64 Y146.574 E17.68361
G1 X76.32 Y145.73 E17.71513
G1 X76.076 Y144.86 E17.74669
G1 X75.91 Y143.972 E17.77824
G1 X75.813 Y142.817 E17.81871
G1 X75.8 Y142.208 E17.83999
G1 X75.801 Y77.986 E20.08282
G1 X75.81 Y77.321 E20.10605
G1 X75.862 Y76.419 E20.1376
G1 X75.994 Y75.526 E20.16912
G1 X76.204 Y74.648 E20.20065
G1 X76.491 Y73.791 E20.23222
G1 X76.853 Y72.964 E20.26374
G1 X77.286 Y72.172 E20.29527
G1 X77.788 Y71.421 E20.32681
G1 X78.355 Y70.717 E20.35838
G1 F3000 E13.85838
G0 F6000 X86.2 Y77.65
G1 F3000 E20.35838
G1 F1200 X133.8 Y77.65 E22.02072
G1 X133.8 Y142.35 E24.28025
G1 X119.196 Y142.35 E24.79027
G1 X119.191 Y142.095 E24.79917
G1 X119.185 Y142.052 E24.80069
G1 X119.095 Y141.683 E24.81395
G1 X119.089 Y141.661 E24.81475
G1 X118.953 Y141.292 E24.82849
G1 X118.939 Y141.262 E24.82964
G1 X118.744 Y140.918 E24.84345
G1 X118.718 Y140.882 E24.845
G1 X118.352 Y140.482 E24.86394
G1 X118.314 Y140.45 E24.86567
G1 X117.881 Y140.164 E24.88379
G1 X117.846 Y140.146 E24.88517
G1 X117.444 Y139.983 E24.90032
G1 X117.414 Y139.973 E24.90142
G1 X117.041 Y139.887 E24.91479
G1 X117.011 Y139.883 E24.91585
G1 X116.631 Y139.854 E24.92916
G1 X116.616 Y139.853 E24.92968
G1 X103.491 Y139.852 E25.38805
G1 X103.481 Y139.852 E25.3884
G1 X103.021 Y139.875 E25.40448
G1 X102.987 Y139.88 E25.40568
G1 X102.54 Y139.98 E25.42168
G1 X102.505 Y139.991 E25.42296
G1 X102.017 Y140.2 E25.4415
G1 X101.978 Y140.222 E25.44306
G1 X101.585 Y140.508 E25.46004
G1 X101.552 Y140.539 E25.46162
G1 X101.252 Y140.883 E25.47756
G1 X101.225 Y140.924 E25.47927
G1 X100.95 Y141.466 E25.5005
G1 X100.934 Y141.507 E25.50204
G1 X100.806 Y142.014 E25.5203
G1 X100.8 Y142.063 E25.52202
G1 X100.8 Y142.35 E25.53204
G1 X86.2 Y142.35 E26.04192
G1 X86.2 Y77.65 E28.30145
G0 F6000 X86.6 Y78.05
G1 F1200 X133.4 Y78.05 E29.93585
G1 X133.4 Y141.95 E32.16744
G1 X119.572 Y141.95 E32.65036
G1 X119.484 Y141.588 E32.66337
G1 X119.464 Y141.523 E32.66574
G1 X119.328 Y141.154 E32.67948
G1 X119.287 Y141.065 E32.6829
G1 X119.092 Y140.721 E32.69671
G1 X119.013 Y140.612 E32.70141
G1 X118.647 Y140.212 E32.72035
G1 X118.535 Y140.116 E32.7255
G1 X118.102 Y139.83 E32.74362
G1 X117.996 Y139.775 E32.74779
G1 X117.594 Y139.612 E32.76294
G1 X117.504 Y139.583 E32.76624
G1 X117.131 Y139.497 E32.77961
G1 X117.042 Y139.484 E32.78275
G1 X116.662 Y139.455 E32.79606
G1 X116.616 Y139.453 E32.79767
G1 X103.491 Y139.452 E33.25603
G1 X103.461 Y139.453 E33.25708
G1 X103.001 Y139.476 E33.27317
G1 X102.9 Y139.489 E33.27672
G1 X102.453 Y139.589 E33.29272
G1 X102.348 Y139.623 E33.29657
G1 X101.86 Y139.832 E33.31511
G1 X101.743 Y139.899 E33.31982
G1 X101.35 Y140.185 E33.3368
G1 X101.251 Y140.276 E33.34149
G1 X100.951 Y140.62 E33.35743
G1 X100.868 Y140.743 E33.36262
G1 X100.593 Y141.285 E33.38384
G1 X100.546 Y141.409 E33.38847
G1 X100.418 Y141.916 E33.40673
G1 X100.414 Y141.95 E33.40793
G1 X86.6 Y141.95 E33.89036
G1 X86.6 Y78.05 E36.12195
G0 F6000 X87 Y78.45
G1 F1200 X133 Y78.45 E37.72841
G1 X133 Y141.55 E39.93206
G1 X119.887 Y141.55 E40.39001
G1 X119.873 Y141.493 E40.39206
G1 X119.839 Y141.384 E40.39605
G1 X119.703 Y141.015 E40.40978
G1 X119.635 Y140.868 E40.41544
G1 X119.44 Y140.524 E40.42925
G1 X119.308 Y140.342 E40.4371
G1 X118.942 Y139.942 E40.45603
G1 X118.755 Y139.783 E40.4646
G1 X118.322 Y139.497 E40.48273
G1 X118.147 Y139.404 E40.48965
G1 X117.745 Y139.241 E40.5048
G1 X117.594 Y139.194 E40.51032
G1 X117.221 Y139.108 E40.52369
G1 X117.072 Y139.085 E40.52895
G1 X116.692 Y139.056 E40.54226
G1 X116.616 Y139.053 E40.54492
G1 X103.491 Y139.052 E41.00328
G1 X103.441 Y139.053 E41.00503
G1 X102.981 Y139.076 E41.02112
G1 X102.813 Y139.099 E41.02704
G1 X102.366 Y139.199 E41.04303
G1 X102.19 Y139.256 E41.04949
G1 X101.702 Y139.465 E41.06803
G1 X101.508 Y139.575 E41.07582
G1 X101.115 Y139.861 E41.0928
G1 X100.949 Y140.013 E41.10066
G1 X100.649 Y140.357 E41.1166
G1 X100.511 Y140.562 E41.12523
G1 X100.236 Y141.104 E41.14645
G1 X100.158 Y141.311 E41.15418
G1 X100.098 Y141.55 E41.16278
G1 X87 Y141.55 E41.62021
G1 X87 Y78.45 E43.82386
G0 F6000 X87.4 Y78.85
G1 F1200 X132.6 Y78.85 E45.40238
G1 X132.6 Y141.15 E47.5781
G1 X120.18 Y141.15 E48.01184
G1 X120.079 Y140.877 E48.02201
G1 X119.983 Y140.671 E48.02994
G1 X119.788 Y140.327 E48.04375
G1 X119.603 Y140.072 E48.05476
G1 X119.237 Y139.672 E48.07369
G1 X118.976 Y139.449 E48.08568
G1 X118.543 Y139.163 E48.1038
G1 X118.297 Y139.034 E48.1135
G1 X117.895 Y138.871 E48.12865
G1 X117.684 Y138.804 E48.13638
G1 X117.311 Y138.718 E48.14975
G1 X117.103 Y138.686 E48.1571
G1 X116.723 Y138.657 E48.17041
G1 X116.616 Y138.653 E48.17415
G1 X103.491 Y138.652 E48.63252
G1 X103.421 Y138.654 E48.63496
G1 X102.961 Y138.677 E48.65105
G1 X102.725 Y138.709 E48.65936
G1 X102.278 Y138.809 E48.67536
G1 X102.033 Y138.888 E48.68435
G1 X101.545 Y139.097 E48.70289
G1 X101.272 Y139.252 E48.71385
G1 X100.879 Y139.538 E48.73083
G1 X100.648 Y139.75 E48.74178
G1 X100.348 Y140.094 E48.75772
G1 X100.155 Y140.381 E48.7698
G1 X99.88 Y140.923 E48.79102
G1 X99.795 Y141.15 E48.79949
G1 X87.4 Y141.15 E49.23236
G1 X87.4 Y78.85 E51.40807
G0 F6000 X87.8 Y79.25
G1 F1200 X132.2 Y79.25 E52.95866
G1 X132.2 Y140.75 E55.10643
G1 X120.458 Y140.75 E55.5165
G1 X120.454 Y140.739 E55.51691
G1 X120.331 Y140.473 E55.52714
G1 X120.136 Y140.129 E55.54095
G1 X119.898 Y139.802 E55.55508
G1 X119.532 Y139.402 E55.57401
G1 X119.196 Y139.115 E55.58944
G1 X118.763 Y138.829 E55.60756
G1 X118.447 Y138.663 E55.62003
G1 X118.045 Y138.5 E55.63518
G1 X117.773 Y138.414 E55.64514
G1 X117.4 Y138.328 E55.65851
G1 X117.133 Y138.287 E55.66794
G1 X116.753 Y138.258 E55.68125
G1 X116.616 Y138.253 E55.68604
G1 X103.491 Y138.252 E56.14441
G1 X103.401 Y138.254 E56.14755
G1 X102.941 Y138.277 E56.16364
G1 X102.638 Y138.318 E56.17431
G1 X102.191 Y138.418 E56.19031
G1 X101.875 Y138.52 E56.20191
G1 X101.387 Y138.729 E56.22045
G1 X101.037 Y138.929 E56.23452
G1 X100.644 Y139.215 E56.2515
G1 X100.346 Y139.487 E56.26559
G1 X100.046 Y139.831 E56.28153
G1 X99.798 Y140.2 E56.29706
G1 X99.523 Y140.742 E56.31828
G1 X99.52 Y140.75 E56.31858
G1 X87.8 Y140.75 E56.72788
G1 X87.8 Y79.25 E58.87565
G0 F6000 X88.2 Y79.65
G1 F1200 X131.8 Y79.65 E60.3983
G1 X131.8 Y83.35 E60.52752
G1 X131.649 Y83.059 E60.53897
G1 X131.39 Y82.73 E60.55359
G1 X131.073 Y82.456 E60.56822
G1 X130.71 Y82.247 E60.58285
G1 X130.313 Y82.111 E60.59751
G1 X129.8 Y82.05 E60.61555
G1 X124.2 Y82.05 E60.81112
G1 X123.783 Y82.09 E60.82575
G1 X123.381 Y82.208 E60.84038
G1 X123.311 Y82.244 E60.84313
G1 X123.257 Y82.252 E60.84503
G1 X122.823 Y82.361 E60.86066
G1 X122.448 Y82.497 E60.87459
G1 X122.058 Y82.683 E60.88968
G1 X121.713 Y82.892 E60.90377
G1 X121.36 Y83.158 E60.9192
G1 X121.072 Y83.424 E60.9329
G1 X120.793 Y83.736 E60.94751
G1 X120.559 Y84.054 E60.9613
G1 X120.335 Y84.434 E60.97671
G1 X120.154 Y84.825 E60.99175
G1 X120.027 Y85.173 E61.00469
G1 X119.913 Y85.593 E61.01989
G1 X119.844 Y85.986 E61.03382
G1 X119.81 Y86.393 E61.04809
G1 X119.802 Y86.574 E61.05441
G1 X119.8 Y88.619 E61.12583
G1 X119.806 Y88.782 E61.13153
G1 X119.833 Y89.151 E61.14445
G1 X119.859 Y89.362 E61.15187
G1 X119.919 Y89.712 E61.16428
G1 X120.014 Y90.077 E61.17745
G1 X120.168 Y90.51 E61.1935
G1 X120.334 Y90.87 E61.20734
G1 X120.533 Y91.216 E61.22128
G1 X120.817 Y91.604 E61.23807
G1 X121.151 Y91.969 E61.25535
G1 X121.548 Y92.311 E61.27365
G1 X121.952 Y92.582 E61.29064
G1 X122.358 Y92.796 E61.30667
G1 X122.821 Y92.982 E61.32409
G1 X123.213 Y93.099 E61.33838
G1 X123.576 Y93.171 E61.3513
G1 X123.78 Y93.202 E61.35851
G1 X124.053 Y93.23 E61.36809
G1 X124.203 Y93.24 E61.37334
G1 X124.47 Y93.249 E61.38267
G1 X124.545 Y93.25 E61.38529
G1 X127.598 Y93.249 E61.49191
G1 X127.709 Y93.246 E61.49579
G1 X128.003 Y93.231 E61.50607
G1 X128.237 Y93.207 E61.51429
G1 X128.608 Y93.148 E61.52741
G1 X128.998 Y93.048 E61.54147
G1 X129.536 Y92.857 E61.56141
G1 X130.081 Y92.573 E61.58287
G1 X130.5 Y92.273 E61.60086
G1 X130.808 Y92.005 E61.61512
G1 X131.078 Y91.723 E61.62876
G1 X131.271 Y91.478 E61.63965
G1 X131.32 Y91.44 E61.64181
G1 X131.594 Y91.123 E61.65645
G1 X131.8 Y90.765 E61.67087
G1 X131.8 Y97.35 E61.90084
G1 X131.649 Y97.059 E61.91229
G1 X131.39 Y96.73 E61.92691
G1 X131.073 Y96.456 E61.94155
G1 X130.71 Y96.247 E61.95617
G1 X130.313 Y96.111 E61.97083
G1 X129.8 Y96.05 E61.98887
G1 X124.2 Y96.05 E62.18444
G1 X123.783 Y96.09 E62.19907
G1 X123.381 Y96.208 E62.2137
G1 X123.311 Y96.244 E62.21645
G1 X123.257 Y96.252 E62.21836
G1 X122.823 Y96.361 E62.23399
G1 X122.448 Y96.497 E62.24792
G1 X122.058 Y96.683 E62.26301
G1 X121.713 Y96.892 E62.27709
G1 X121.36 Y97.158 E62.29253
G1 X121.072 Y97.424 E62.30622
G1 X120.793 Y97.736 E62.32084
G1 X120.559 Y98.054 E62.33463
G1 X120.335 Y98.434 E62.35003
G1 X120.154 Y98.825 E62.36508
G1 X120.027 Y99.173 E62.37801
G1 X119.913 Y99.593 E62.39321
G1 X119.844 Y99.986 E62.40715
G1 X119.81 Y100.393 E62.42141
G1 X119.802 Y100.574 E62.42774
G1 X119.8 Y102.619 E62.49916
G1 X119.806 Y102.782 E62.50485
G1 X119.833 Y103.151 E62.51777
G1 X119.859 Y103.362 E62.5252
G1 X119.919 Y103.712 E62.5376
G1 X120.014 Y104.077 E62.55077
G1 X120.168 Y104.51 E62.56682
G1 X120.334 Y104.87 E62.58067
G1 X120.533 Y105.216 E62.5946
G1 X120.817 Y105.604 E62.6114
G1 X121.151 Y105.969 E62.62868
G1 X121.548 Y106.311 E62.64697
G1 X121.952 Y106.582 E62.66396
G1 X122.358 Y106.796 E62.67999
G1 X122.821 Y106.982 E62.69742
G1 X123.213 Y107.099 E62.7117
G1 X123.576 Y107.171 E62.72463
G1 X123.78 Y107.202 E62.73183
G1 X124.053 Y107.23 E62.74142
