;FLAVOR:Marlin
;TIME:3481
;Filament used: 2.87366m
;Layer height: 0.2
;MINX:3.197
;MINY:98.004
;MINZ:0.2
;MAXX:216.803
;MAXY:121.996
;MAXZ:9.2
;TARGET_MACHINE.NAME:Creality Ender-3 Pro
;Generated with Cura_SteamEngine 5.6.0
M82 ;absolute extrusion mode
; Ender 3 Custom Start G-code
G92 E0 ; Reset Extruder
G28 ; Home all axes
G1 Z5.0 F3000 ; Move Z Axis up a bit during heating to not damage bed
M104 S175 ; Start heating up the nozzle most of the way
M190 S60 ; Start heating the bed, wait until target temperature reached
M109 S210 ; Finish heating the nozzle
G1 Z2.0 F3000 ; Move Z Axis up little to prevent scratching of Heat Bed
G1 X0.1 Y20 Z0.3 F5000.0 ; Move to start position
G1 X0.1 Y200.0 Z0.3 F1500.0 E15 ; Draw the first line
G1 X0.4 Y200.0 Z0.3 F5000.0 ; Move to side a little
G1 X0.4 Y20 Z0.3 F1500.0 E30 ; Draw the second line
G92 E0 ; Reset Extruder
G1 Z2.0 F3000 ; Move Z Axis up little to prevent scratching of Heat Bed
G1 X5 Y20 Z0.3 F5000.0 ; Move over to prevent blob squish
G92 E0
G92 E0
G1 F3000 E-6.5
;LAYER_COUNT:46
;LAYER:0
M107
G0 F6000 X10.021 Y98.08 Z0.2
;TYPE:SKIRT
G1 F3000 E0
G1 F1200 X209.853 Y98.004 E6.97876
G1 X211.749 Y98.47 E7.04695
G1 X213.777 Y99.523 E7.12675
G1 X215.249 Y101.098 E7.20204
G1 X216.247 Y102.814 E7.27136
G1 X216.506 Y103.478 E7.29625
G1 X216.756 Y105.17 E7.35598
G1 X216.803 Y109.116 E7.4938
G1 X216.586 Y109.991 E7.52528
G1 X216.766 Y111.249 E7.56966
G1 X216.8 Y115.067 E7.70301
G1 X216.355 Y116.9 E7.76888
G1 X215.283 Y118.972 E7.85035
G1 X213.72 Y120.431 E7.92502
G1 X211.697 Y121.638 E8.00729
G1 X209.979 Y121.92 E8.06809
G1 X10.147 Y121.996 E15.04685
G1 X8.251 Y121.53 E15.11504
G1 X6.223 Y120.477 E15.19484
G1 X4.751 Y118.902 E15.27013
G1 X3.753 Y117.186 E15.33945
G1 X3.494 Y116.522 E15.36434
G1 X3.244 Y114.83 E15.42408
G1 X3.197 Y110.884 E15.56189
G1 X3.414 Y110.009 E15.59338
G1 X3.234 Y108.751 E15.63776
G1 X3.2 Y104.933 E15.7711
G1 X3.645 Y103.1 E15.83697
G1 X4.717 Y101.028 E15.91844
G1 X6.28 Y99.569 E15.99311
G1 X8.303 Y98.362 E16.07538
G1 X10.021 Y98.08 E16.13618
G0 F6000 X10.086 Y98.475
G1 F1200 X209.807 Y98.404 E23.11107
G1 X211.606 Y98.846 E23.17576
G1 X213.532 Y99.846 E23.25155
G1 X214.926 Y101.338 E23.32286
G1 X215.874 Y102.96 E23.38847
G1 X216.117 Y103.582 E23.41179
G1 X216.356 Y105.175 E23.46805
G1 X216.402 Y109.071 E23.60412
G1 X216.179 Y109.973 E23.63657
G1 X216.366 Y111.253 E23.68174
G1 X216.4 Y115.02 E23.8133
G1 X215.977 Y116.76 E23.87584
G1 X214.959 Y118.727 E23.95319
G1 X213.481 Y120.107 E24.02381
G1 X211.557 Y121.255 E24.10205
G1 X209.914 Y121.525 E24.1602
G1 X10.193 Y121.596 E31.13509
G1 X8.394 Y121.154 E31.19978
G1 X6.468 Y120.154 E31.27557
G1 X5.074 Y118.662 E31.34688
G1 X4.126 Y117.04 E31.41249
G1 X3.883 Y116.418 E31.43581
G1 X3.644 Y114.825 E31.49206
G1 X3.598 Y110.929 E31.62813
G1 X3.821 Y110.027 E31.66058
G1 X3.634 Y108.747 E31.70576
G1 X3.6 Y104.98 E31.83732
G1 X4.023 Y103.24 E31.89986
G1 X5.041 Y101.273 E31.9772
G1 X6.519 Y99.893 E32.04782
G1 X8.443 Y98.745 E32.12607
G1 X10.086 Y98.475 E32.18422
G0 F6000 X10.151 Y98.87
G1 F1200 X209.76 Y98.804 E39.15519
G1 X211.464 Y99.223 E39.21647
G1 X213.287 Y100.169 E39.2882
G1 X214.602 Y101.576 E39.35545
G1 X215.501 Y103.106 E39.41743
G1 X215.728 Y103.687 E39.43921
G1 X215.96 Y105.234 E39.49384
G1 X216.001 Y109.026 E39.62628
G1 X215.772 Y109.956 E39.65973
G1 X215.966 Y111.257 E39.70566
G1 X216 Y114.972 E39.83541
G1 X215.599 Y116.621 E39.89468
G1 X214.635 Y118.482 E39.96787
G1 X213.239 Y119.786 E40.03458
G1 X211.419 Y120.872 E40.1086
G1 X209.849 Y121.13 E40.16416
G1 X10.24 Y121.196 E47.13514
G1 X8.536 Y120.777 E47.19642
G1 X6.713 Y119.831 E47.26815
G1 X5.398 Y118.424 E47.3354
G1 X4.499 Y116.894 E47.39738
G1 X4.272 Y116.313 E47.41916
G1 X4.04 Y114.766 E47.47379
G1 X3.999 Y110.974 E47.60623
G1 X4.228 Y110.044 E47.63967
G1 X4.034 Y108.743 E47.68561
G1 X4 Y105.028 E47.81536
G1 X4.401 Y103.379 E47.87462
G1 X5.365 Y101.518 E47.94782
G1 X6.761 Y100.214 E48.01453
G1 X8.581 Y99.128 E48.08855
G1 X10.151 Y98.87 E48.14411
G0 F6000 X10.216 Y99.265
G1 F1200 X209.714 Y99.204 E55.11121
G1 X211.321 Y99.599 E55.169
G1 X213.042 Y100.492 E55.23671
G1 X214.281 Y101.818 E55.30009
G1 X215.128 Y103.252 E55.35825
G1 X215.339 Y103.792 E55.3785
G1 X215.564 Y105.293 E55.43151
G1 X215.6 Y108.982 E55.56034
G1 X215.365 Y109.938 E55.59472
G1 X215.566 Y111.261 E55.64146
G1 X215.6 Y114.924 E55.76939
G1 X215.221 Y116.482 E55.82538
G1 X214.312 Y118.237 E55.89441
G1 X212.997 Y119.465 E55.95724
G1 X211.281 Y120.489 E56.02703
G1 X209.784 Y120.735 E56.08001
G1 X10.286 Y120.796 E63.04711
G1 X8.679 Y120.401 E63.1049
G1 X6.958 Y119.508 E63.17261
G1 X5.719 Y118.182 E63.23599
G1 X4.872 Y116.748 E63.29415
G1 X4.661 Y116.208 E63.3144
G1 X4.436 Y114.707 E63.3674
G1 X4.4 Y111.018 E63.49624
G1 X4.635 Y110.062 E63.53062
G1 X4.434 Y108.739 E63.57736
G1 X4.4 Y105.076 E63.70528
G1 X4.779 Y103.518 E63.76128
G1 X5.688 Y101.763 E63.8303
G1 X7.003 Y100.535 E63.89314
G1 X8.719 Y99.511 E63.96293
G1 X10.216 Y99.265 E64.01591
G0 F6000 X10.281 Y99.66
G1 F1200 X209.668 Y99.604 E70.97913
G1 X211.178 Y99.975 E71.03343
G1 X212.797 Y100.815 E71.09713
G1 X213.958 Y102.058 E71.15653
G1 X214.755 Y103.398 E71.21098
G1 X214.95 Y103.897 E71.22969
G1 X215.168 Y105.352 E71.28107
G1 X215.2 Y108.937 E71.40627
G1 X214.958 Y109.92 E71.44163
G1 X215.166 Y111.265 E71.48916
G1 X215.2 Y114.876 E71.61527
G1 X214.843 Y116.343 E71.668
G1 X213.989 Y117.992 E71.73285
G1 X212.755 Y119.144 E71.79181
G1 X211.143 Y120.106 E71.85736
G1 X209.719 Y120.34 E71.90776
G1 X10.332 Y120.396 E78.87098
G1 X8.822 Y120.025 E78.92528
G1 X7.203 Y119.185 E78.98898
G1 X6.042 Y117.942 E79.04838
G1 X5.245 Y116.602 E79.10283
G1 X5.05 Y116.103 E79.12154
G1 X4.832 Y114.648 E79.17292
G1 X4.8 Y111.063 E79.29813
G1 X5.042 Y110.08 E79.33348
G1 X4.834 Y108.735 E79.38101
G1 X4.8 Y105.124 E79.50712
G1 X5.157 Y103.657 E79.55985
G1 X6.011 Y102.008 E79.6247
G1 X7.245 Y100.856 E79.68366
G1 X8.857 Y99.894 E79.74922
G1 X10.281 Y99.66 E79.79962
G0 F6000 X10.346 Y100.055
G1 F1200 X209.621 Y100.004 E86.75892
G1 X211.036 Y100.352 E86.80981
G1 X212.552 Y101.138 E86.86945
G1 X213.634 Y102.297 E86.92482
G1 X214.411 Y103.603 E86.97789
G1 X214.56 Y103.998 E86.99264
G1 X214.772 Y105.411 E87.04254
G1 X214.8 Y108.891 E87.16407
G1 X214.545 Y109.924 E87.20123
G1 X214.576 Y110.04 E87.20542
G1 X214.77 Y111.325 E87.25081
G1 X214.8 Y114.828 E87.37315
G1 X214.465 Y116.204 E87.42261
G1 X213.666 Y117.747 E87.48329
G1 X212.513 Y118.823 E87.53837
G1 X211.005 Y119.723 E87.5997
G1 X209.654 Y119.945 E87.64751
G1 X10.379 Y119.996 E94.60682
G1 X8.964 Y119.648 E94.65771
G1 X7.448 Y118.862 E94.71734
G1 X6.366 Y117.703 E94.77272
G1 X5.589 Y116.397 E94.82579
G1 X5.44 Y116.002 E94.84053
G1 X5.228 Y114.589 E94.89043
G1 X5.2 Y111.109 E95.01197
G1 X5.455 Y110.076 E95.04913
G1 X5.424 Y109.96 E95.05332
G1 X5.23 Y108.675 E95.0987
G1 X5.2 Y105.172 E95.22104
G1 X5.535 Y103.796 E95.2705
G1 X6.334 Y102.253 E95.33118
G1 X7.487 Y101.177 E95.38626
G1 X8.995 Y100.277 E95.44759
G1 X10.346 Y100.055 E95.49541
G0 F6000 X10.411 Y100.45
G1 F1200 X209.575 Y100.404 E102.45084
G1 X210.893 Y100.728 E102.49824
G1 X212.307 Y101.461 E102.55386
G1 X213.31 Y102.536 E102.60521
G1 X214.067 Y103.808 E102.6569
G1 X214.17 Y104.098 E102.66765
G1 X214.376 Y105.47 E102.7161
G1 X214.4 Y108.845 E102.83397
G1 X214.129 Y109.94 E102.87336
G1 X214.181 Y110.101 E102.87927
G1 X214.37 Y111.328 E102.92263
G1 X214.4 Y114.78 E103.04319
G1 X214.087 Y116.065 E103.08937
G1 X213.343 Y117.502 E103.14589
G1 X212.271 Y118.502 E103.19708
G1 X210.867 Y119.34 E103.25418
G1 X209.589 Y119.55 E103.29942
G1 X10.425 Y119.596 E110.25485
G1 X9.107 Y119.272 E110.30225
G1 X7.693 Y118.539 E110.35787
G1 X6.69 Y117.464 E110.40921
G1 X5.933 Y116.192 E110.46091
G1 X5.83 Y115.902 E110.47166
G1 X5.624 Y114.53 E110.52011
G1 X5.6 Y111.155 E110.63798
G1 X5.871 Y110.06 E110.67737
G1 X5.819 Y109.899 E110.68328
G1 X5.63 Y108.672 E110.72664
G1 X5.6 Y105.22 E110.84719
G1 X5.913 Y103.935 E110.89338
G1 X6.657 Y102.498 E110.94989
G1 X7.729 Y101.498 E111.00109
G1 X9.133 Y100.66 E111.05819
G1 X10.411 Y100.45 E111.10342
G0 F6000 X10.476 Y100.845
G1 F1200 X209.529 Y100.804 E118.05498
G1 X210.75 Y101.104 E118.09889
G1 X212.06 Y101.783 E118.15042
G1 X212.988 Y102.778 E118.19794
G1 X213.723 Y104.013 E118.24813
G1 X213.774 Y104.157 E118.25346
G1 X213.98 Y105.529 E118.30191
G1 X214 Y108.799 E118.41611
G1 X213.71 Y109.968 E118.45818
G1 X213.786 Y110.163 E118.46549
G1 X213.97 Y111.332 E118.50681
G1 X214 Y114.732 E118.62556
G1 X213.709 Y115.926 E118.66848
G1 X213.021 Y117.255 E118.72074
G1 X212.026 Y118.183 E118.76825
G1 X210.729 Y118.957 E118.821
G1 X209.524 Y119.155 E118.86365
G1 X10.471 Y119.196 E125.81521
G1 X9.25 Y118.896 E125.85911
G1 X7.94 Y118.217 E125.91064
G1 X7.012 Y117.222 E125.95816
G1 X6.277 Y115.987 E126.00835
G1 X6.226 Y115.843 E126.01369
G1 X6.02 Y114.471 E126.06214
G1 X6 Y111.201 E126.17634
G1 X6.29 Y110.032 E126.2184
G1 X6.214 Y109.837 E126.22571
G1 X6.03 Y108.668 E126.26704
G1 X6 Y105.268 E126.38578
G1 X6.291 Y104.074 E126.4287
G1 X6.979 Y102.745 E126.48096
G1 X7.974 Y101.817 E126.52848
G1 X9.271 Y101.043 E126.58123
G1 X10.476 Y100.845 E126.62387
G0 F6000 X10.541 Y101.24
G1 F1200 X209.483 Y101.204 E133.57155
G1 X210.607 Y101.48 E133.61197
G1 X211.813 Y102.105 E133.65941
G1 X212.666 Y103.02 E133.7031
G1 X213.379 Y104.218 E133.75178
G1 X213.58 Y105.531 E133.79817
G1 X213.6 Y108.751 E133.91063
G1 X213.342 Y109.814 E133.94883
G1 X213.271 Y109.975 E133.95497
G1 X213.391 Y110.227 E133.96472
G1 X213.57 Y111.336 E134.00395
G1 X213.6 Y114.684 E134.12088
G1 X213.331 Y115.787 E134.16053
G1 X212.699 Y117.008 E134.20854
G1 X211.784 Y117.861 E134.25223
G1 X210.589 Y118.574 E134.30083
G1 X209.459 Y118.76 E134.34082
G1 X10.517 Y118.796 E141.2885
G1 X9.393 Y118.52 E141.32892
G1 X8.187 Y117.895 E141.37636
G1 X7.334 Y116.98 E141.42004
G1 X6.621 Y115.782 E141.46873
G1 X6.42 Y114.469 E141.51512
G1 X6.4 Y111.249 E141.62757
G1 X6.658 Y110.186 E141.66577
G1 X6.729 Y110.025 E141.67192
G1 X6.609 Y109.773 E141.68167
G1 X6.43 Y108.664 E141.7209
G1 X6.4 Y105.316 E141.83783
G1 X6.669 Y104.213 E141.87748
G1 X7.301 Y102.992 E141.92549
G1 X8.216 Y102.139 E141.96918
G1 X9.411 Y101.426 E142.01777
G1 X10.541 Y101.24 E142.05777
G0 F6000 X10.606 Y101.635
G1 F1200 X209.436 Y101.604 E149.00154
G1 X210.465 Y101.857 E149.03854
G1 X211.566 Y102.427 E149.08184
G1 X212.344 Y103.262 E149.1217
G1 X212.996 Y104.357 E149.1662
G1 X213.18 Y105.534 E149.20781
G1 X213.2 Y108.704 E149.31852
G1 X212.953 Y109.72 E149.35503
G1 X212.814 Y109.989 E149.36561
G1 X212.996 Y110.293 E149.37798
G1 X213.17 Y111.34 E149.41505
G1 X213.2 Y114.636 E149.53016
G1 X212.953 Y115.648 E149.56654
G1 X212.377 Y116.761 E149.6103
G1 X211.542 Y117.539 E149.65016
G1 X210.449 Y118.191 E149.69461
G1 X209.394 Y118.365 E149.73195
G1 X10.564 Y118.396 E156.67572
G1 X9.535 Y118.143 E156.71272
G1 X8.434 Y117.573 E156.75602
G1 X7.656 Y116.738 E156.79588
G1 X7.004 Y115.643 E156.84038
G1 X6.82 Y114.466 E156.88199
G1 X6.8 Y111.296 E156.9927
G1 X7.047 Y110.28 E157.02921
G1 X7.186 Y110.011 E157.03979
G1 X7.004 Y109.707 E157.05216
G1 X6.83 Y108.66 E157.08923
G1 X6.8 Y105.364 E157.20434
G1 X7.047 Y104.352 E157.24072
G1 X7.623 Y103.239 E157.28448
G1 X8.458 Y102.461 E157.32434
G1 X9.551 Y101.809 E157.36879
G1 X10.606 Y101.635 E157.40613
G0 F6000 X10.671 Y102.03
G1 F1200 X209.39 Y102.004 E164.34602
G1 X210.322 Y102.233 E164.37954
G1 X211.319 Y102.749 E164.41874
G1 X212.022 Y103.504 E164.45477
G1 X212.613 Y104.496 E164.49509
G1 X212.78 Y105.537 E164.53191
G1 X212.8 Y108.656 E164.64084
G1 X212.575 Y109.581 E164.67409
G1 X212.357 Y110.003 E164.69068
G1 X212.613 Y110.431 E164.70809
G1 X212.775 Y111.406 E164.74261
G1 X212.8 Y114.588 E164.85374
G1 X212.575 Y115.509 E164.88685
G1 X212.055 Y116.514 E164.92637
G1 X211.3 Y117.217 E164.96239
G1 X210.309 Y117.808 E165.00269
G1 X209.329 Y117.97 E165.03738
G1 X10.61 Y117.996 E171.97727
G1 X9.678 Y117.767 E172.01079
G1 X8.681 Y117.251 E172.04999
G1 X7.978 Y116.496 E172.08602
G1 X7.387 Y115.504 E172.12635
G1 X7.22 Y114.463 E172.16316
G1 X7.2 Y111.344 E172.27209
G1 X7.425 Y110.419 E172.30534
G1 X7.643 Y109.997 E172.32193
G1 X7.387 Y109.569 E172.33934
G1 X7.225 Y108.594 E172.37386
G1 X7.2 Y105.412 E172.48499
G1 X7.425 Y104.491 E172.5181
G1 X7.945 Y103.486 E172.55762
G1 X8.7 Y102.783 E172.59364
G1 X9.691 Y102.192 E172.63394
G1 X10.671 Y102.03 E172.66863
G0 F6000 X10.736 Y102.425
G1 F1200 X209.344 Y102.404 E179.60464
G1 X210.179 Y102.609 E179.63467
G1 X211.074 Y103.072 E179.66986
G1 X211.698 Y103.743 E179.70186
G1 X212.23 Y104.635 E179.73813
G1 X212.38 Y105.54 E179.77017
G1 X212.4 Y108.608 E179.87732
G1 X212.197 Y109.44 E179.90722
G1 X211.9 Y110.016 E179.92986
G1 X212.23 Y110.569 E179.95235
G1 X212.38 Y111.472 E179.98431
G1 X212.4 Y114.54 E180.09146
G1 X212.197 Y115.37 E180.1213
G1 X211.732 Y116.269 E180.15665
G1 X211.061 Y116.893 E180.18865
G1 X210.169 Y117.425 E180.22492
G1 X209.264 Y117.575 E180.25696
G1 X10.656 Y117.596 E187.19297
G1 X9.821 Y117.391 E187.223
G1 X8.926 Y116.928 E187.25819
G1 X8.302 Y116.257 E187.29019
G1 X7.77 Y115.365 E187.32646
G1 X7.62 Y114.46 E187.3585
G1 X7.6 Y111.392 E187.46564
G1 X7.803 Y110.56 E187.49555
G1 X8.1 Y109.984 E187.51819
G1 X7.77 Y109.431 E187.54068
G1 X7.62 Y108.528 E187.57264
G1 X7.6 Y105.46 E187.67979
G1 X7.803 Y104.63 E187.70963
G1 X8.268 Y103.731 E187.74498
G1 X8.939 Y103.107 E187.77698
G1 X9.831 Y102.575 E187.81325
G1 X10.736 Y102.425 E187.84529
G0 F6000 X10.802 Y102.82
G1 F1200 X209.298 Y102.804 E194.77739
G1 X210.036 Y102.985 E194.80393
G1 X210.829 Y103.395 E194.8351
G1 X211.374 Y103.982 E194.86308
G1 X211.847 Y104.775 E194.89532
G1 X211.985 Y105.606 E194.92474
G1 X212 Y108.559 E195.02787
G1 X211.819 Y109.299 E195.05448
G1 X211.442 Y110.03 E195.0832
G1 X211.847 Y110.709 E195.11081
G1 X211.985 Y111.538 E195.14016
G1 X212 Y114.491 E195.24329
G1 X211.819 Y115.231 E195.26989
G1 X211.409 Y116.024 E195.30107
G1 X210.822 Y116.569 E195.32904
G1 X210.029 Y117.042 E195.36129
G1 X209.198 Y117.18 E195.39071
G1 X10.702 Y117.196 E202.32281
G1 X9.964 Y117.015 E202.34935
G1 X9.171 Y116.605 E202.38053
G1 X8.626 Y116.018 E202.4085
G1 X8.153 Y115.225 E202.44075
G1 X8.015 Y114.394 E202.47016
G1 X8 Y111.441 E202.57329
G1 X8.181 Y110.701 E202.5999
G1 X8.558 Y109.97 E202.62862
G1 X8.153 Y109.291 E202.65623
G1 X8.015 Y108.462 E202.68558
G1 X8 Y105.509 E202.78871
G1 X8.181 Y104.769 E202.81532
G1 X8.591 Y103.976 E202.84649
G1 X9.178 Y103.431 E202.87447
G1 X9.971 Y102.958 E202.90671
G1 X10.802 Y102.82 E202.93613
G0 F6000 X10.868 Y103.215
G1 F1200 X209.248 Y103.204 E209.86419
G1 X209.897 Y103.363 E209.88752
G1 X210.584 Y103.718 E209.91453
G1 X211.05 Y104.221 E209.93847
G1 X211.464 Y104.915 E209.96669
G1 X211.59 Y105.672 E209.99349
G1 X211.6 Y108.51 E210.09261
G1 X211.441 Y109.16 E210.11598
G1 X211.117 Y109.787 E210.14062
G1 X210.913 Y110.006 E210.15108
G1 X211.07 Y110.187 E210.15944
G1 X211.464 Y110.847 E210.18629
G1 X211.59 Y111.604 E210.21309
G1 X211.6 Y114.442 E210.3122
G1 X211.441 Y115.092 E210.33557
G1 X211.086 Y115.779 E210.36258
G1 X210.583 Y116.245 E210.38652
G1 X209.889 Y116.659 E210.41474
G1 X209.132 Y116.785 E210.44155
G1 X10.752 Y116.796 E217.3696
G1 X10.103 Y116.637 E217.39293
G1 X9.416 Y116.282 E217.41994
G1 X8.95 Y115.779 E217.44389
G1 X8.536 Y115.085 E217.47211
G1 X8.41 Y114.328 E217.49891
G1 X8.4 Y111.49 E217.59802
G1 X8.559 Y110.84 E217.62139
G1 X8.883 Y110.213 E217.64604
G1 X9.087 Y109.994 E217.65649
G1 X8.93 Y109.813 E217.66486
G1 X8.536 Y109.153 E217.6917
G1 X8.41 Y108.396 E217.7185
G1 X8.4 Y105.558 E217.81761
G1 X8.559 Y104.908 E217.84098
