;FLAVOR:Marlin
;TIME:22015
;Filament used: 18.4823m
;Layer height: 0.2
;MINX:19.153
;MINY:73.307
;MINZ:0.2
;MAXX:197.8
;MAXY:142.748
;MAXZ:106
;TARGET_MACHINE.NAME:Creality Ender-3 Pro
;Generated with Cura_SteamEngine 5.6.0
M82 ;absolute extrusion mode
; Ender 3 Custom Start G-code
G92 E0 ; Reset Extruder
G28 ; Home all axes
G1 Z5.0 F3000 ; Move Z Axis up a bit during heating to not damage bed
M104 S175 ; Start heating up the nozzle most of the way
M190 S60 ; Start heating the bed, wait until target temperature reached
M109 S210 ; Finish heating the nozzle
G1 Z2.0 F3000 ; Move Z Axis up little to prevent scratching of Heat Bed
G1 X0.1 Y20 Z0.3 F5000.0 ; Move to start position
G1 X0.1 Y200.0 Z0.3 F1500.0 E15 ; Draw the first line
G1 X0.4 Y200.0 Z0.3 F5000.0 ; Move to side a little
G1 X0.4 Y20 Z0.3 F1500.0 E30 ; Draw the second line
G92 E0 ; Reset Extruder
G1 Z2.0 F3000 ; Move Z Axis up little to prevent scratching of Heat Bed
G1 X5 Y20 Z0.3 F5000.0 ; Move over to prevent blob squish
G92 E0
G92 E0
G1 F3000 E-6.5
;LAYER_COUNT:530
;LAYER:0
M107
G0 F6000 X27.303 Y76.557 Z0.2
;TYPE:SKIRT
G1 F3000 E0
G1 F1200 X29.021 Y76.275 E0.0608
G1 X190.853 Y76.2 E5.71248
G1 X192.749 Y76.666 E5.78067
G1 X194.777 Y77.719 E5.86047
G1 X196.236 Y79.28 E5.93509
G1 X197.443 Y81.303 E6.01736
G1 X197.725 Y83.021 E6.07816
G1 X197.8 Y112.853 E7.11999
G1 X197.334 Y114.749 E7.18818
G1 X196.281 Y116.777 E7.26798
G1 X194.72 Y118.236 E7.3426
G1 X192.697 Y119.443 E7.42487
G1 X190.979 Y119.725 E7.48567
G1 X77.8 Y119.8 E11.43823
G1 X77.8 Y124.853 E11.6147
G1 X77.334 Y126.749 E11.68289
G1 X76.281 Y128.777 E11.76269
G1 X74.72 Y130.236 E11.83731
G1 X72.697 Y131.443 E11.91958
G1 X70.979 Y131.725 E11.98038
G1 X54.375 Y131.797 E12.56025
G1 X54.201 Y132.416 E12.5827
G1 X53.238 Y134.24 E12.65473
G1 X48.031 Y139.447 E12.9119
G1 X46.251 Y140.591 E12.9858
G1 X39.098 Y142.587 E13.24514
G1 X36.823 Y142.748 E13.32479
G1 X29.702 Y140.67 E13.58385
G1 X27.821 Y139.659 E13.65843
G1 X22.449 Y134.287 E13.92375
G1 X21.343 Y132.58 E13.99478
G1 X19.316 Y125.635 E14.24744
G1 X19.153 Y123.302 E14.32912
G1 X21.238 Y116.182 E14.58821
G1 X22.122 Y114.479 E14.65522
G1 X22.463 Y114.119 E14.67254
G1 X22.275 Y112.979 E14.71289
G1 X22.2 Y83.147 E15.75472
G1 X22.666 Y81.251 E15.8229
G1 X23.719 Y79.223 E15.9027
G1 X25.28 Y77.764 E15.97732
G1 X27.303 Y76.557 E16.05959
G0 F6000 X27.443 Y76.94
G1 F1200 X29.086 Y76.67 E16.11774
G1 X190.807 Y76.6 E21.76555
G1 X192.606 Y77.042 E21.83024
G1 X194.532 Y78.042 E21.90603
G1 X195.912 Y79.519 E21.97662
G1 X197.06 Y81.443 E22.05487
G1 X197.33 Y83.086 E22.11302
G1 X197.4 Y112.807 E23.15097
G1 X196.958 Y114.606 E23.21566
G1 X195.958 Y116.532 E23.29145
G1 X194.481 Y117.912 E23.36204
G1 X192.557 Y119.06 E23.44029
G1 X190.914 Y119.33 E23.49844
G1 X77.4 Y119.4 E27.4627
G1 X77.4 Y124.807 E27.65153
G1 X76.958 Y126.606 E27.71623
G1 X75.958 Y128.532 E27.79202
G1 X74.481 Y129.912 E27.86261
G1 X72.557 Y131.06 E27.94085
G1 X70.914 Y131.33 E27.999
G1 X54.071 Y131.398 E28.58722
G1 X53.828 Y132.265 E28.61866
G1 X52.912 Y134 E28.68718
G1 X47.779 Y139.133 E28.94069
G1 X46.084 Y140.222 E29.01105
G1 X39.03 Y142.191 E29.26682
G1 X36.866 Y142.344 E29.34258
G1 X29.852 Y140.297 E29.59775
G1 X28.064 Y139.336 E29.66864
G1 X22.763 Y134.035 E29.93045
G1 X21.71 Y132.41 E29.99807
G1 X19.712 Y125.564 E30.24713
G1 X19.557 Y123.346 E30.32478
G1 X21.611 Y116.331 E30.58005
G1 X22.45 Y114.715 E30.64364
G1 X22.89 Y114.25 E30.66599
G1 X22.67 Y112.914 E30.71328
G1 X22.6 Y83.193 E31.75123
G1 X23.042 Y81.394 E31.81593
G1 X24.042 Y79.468 E31.89172
G1 X25.519 Y78.088 E31.96231
G1 X27.443 Y76.94 E32.04055
G0 F6000 X27.581 Y77.323
G1 F1200 X29.151 Y77.065 E32.09612
G1 X190.76 Y77 E37.74001
G1 X192.464 Y77.419 E37.80129
G1 X194.287 Y78.365 E37.87302
G1 X195.591 Y79.761 E37.93973
G1 X196.677 Y81.581 E38.01375
G1 X196.935 Y83.151 E38.06931
G1 X197 Y112.76 E39.10336
G1 X196.581 Y114.464 E39.16464
G1 X195.635 Y116.287 E39.23636
G1 X194.239 Y117.591 E39.30308
G1 X192.419 Y118.677 E39.37709
G1 X190.849 Y118.935 E39.43266
G1 X77 Y119 E43.40862
G1 X77 Y124.76 E43.60978
G1 X76.581 Y126.464 E43.67106
G1 X75.635 Y128.287 E43.74279
G1 X74.239 Y129.591 E43.8095
G1 X72.419 Y130.677 E43.88352
G1 X70.849 Y130.935 E43.93908
G1 X53.767 Y130.999 E44.53564
G1 X53.455 Y132.114 E44.57608
G1 X52.586 Y133.76 E44.64108
G1 X47.524 Y138.822 E44.89109
G1 X45.92 Y139.853 E44.95768
G1 X38.962 Y141.795 E45.20996
G1 X36.909 Y141.94 E45.28184
G1 X30.002 Y139.924 E45.53312
G1 X28.307 Y139.013 E45.60032
G1 X23.075 Y133.781 E45.85872
G1 X22.078 Y132.242 E45.92276
G1 X20.108 Y125.493 E46.16829
G1 X19.961 Y123.39 E46.24191
G1 X21.984 Y116.48 E46.49336
G1 X22.778 Y114.951 E46.55353
G1 X23.317 Y114.381 E46.58093
G1 X23.065 Y112.849 E46.63515
G1 X23 Y83.24 E47.66919
G1 X23.419 Y81.536 E47.73047
G1 X24.365 Y79.713 E47.8022
G1 X25.761 Y78.409 E47.86891
G1 X27.581 Y77.323 E47.94293
G0 F6000 X27.719 Y77.706
G1 F1200 X29.216 Y77.46 E47.99591
G1 X190.714 Y77.4 E53.63593
G1 X192.321 Y77.795 E53.69372
G1 X194.042 Y78.688 E53.76143
G1 X195.27 Y80.003 E53.82426
G1 X196.294 Y81.719 E53.89405
G1 X196.54 Y83.216 E53.94703
G1 X196.6 Y112.714 E54.9772
G1 X196.205 Y114.321 E55.03499
G1 X195.312 Y116.042 E55.1027
G1 X193.997 Y117.27 E55.16554
G1 X192.281 Y118.294 E55.23532
G1 X190.784 Y118.54 E55.28831
G1 X76.6 Y118.6 E59.27597
G1 X76.6 Y124.714 E59.48949
G1 X76.205 Y126.321 E59.54728
G1 X75.312 Y128.042 E59.61499
G1 X73.997 Y129.27 E59.67783
G1 X72.281 Y130.294 E59.74762
G1 X70.784 Y130.54 E59.8006
G1 X53.464 Y130.6 E60.40547
G1 X53.082 Y131.963 E60.4549
G1 X52.26 Y133.52 E60.51639
G1 X47.272 Y138.508 E60.76274
G1 X45.753 Y139.484 E60.8258
G1 X38.894 Y141.399 E61.0745
G1 X36.952 Y141.536 E61.14249
G1 X30.152 Y139.551 E61.38987
G1 X28.55 Y138.69 E61.45339
G1 X23.389 Y133.529 E61.70828
G1 X22.445 Y132.072 E61.76891
G1 X20.504 Y125.422 E62.01084
G1 X20.365 Y123.434 E62.08044
G1 X22.357 Y116.629 E62.32806
G1 X23.106 Y115.187 E62.38481
G1 X23.806 Y114.447 E62.42039
G1 X23.694 Y114.206 E62.42967
G1 X23.46 Y112.784 E62.48
G1 X23.4 Y83.286 E63.51016
G1 X23.795 Y81.679 E63.56795
G1 X24.688 Y79.958 E63.63566
G1 X26.003 Y78.73 E63.6985
G1 X27.719 Y77.706 E63.76829
G0 F6000 X27.857 Y78.089
G1 F1200 X29.281 Y77.855 E63.81868
G1 X190.668 Y77.8 E69.45483
G1 X192.178 Y78.171 E69.50913
G1 X193.797 Y79.011 E69.57283
G1 X194.949 Y80.245 E69.63178
G1 X195.911 Y81.857 E69.69734
G1 X196.145 Y83.281 E69.74774
G1 X196.2 Y112.668 E70.77403
G1 X195.829 Y114.178 E70.82833
G1 X194.989 Y115.797 E70.89203
G1 X193.755 Y116.949 E70.95098
G1 X192.143 Y117.911 E71.01654
G1 X190.719 Y118.145 E71.06694
G1 X76.2 Y118.2 E75.0663
G1 X76.2 Y124.668 E75.29218
G1 X75.829 Y126.178 E75.34649
G1 X74.989 Y127.797 E75.41018
G1 X73.755 Y128.949 E75.46914
G1 X72.143 Y129.911 E75.5347
G1 X70.719 Y130.145 E75.5851
G1 X53.38 Y130.2 E76.19063
G1 X53.172 Y130.161 E76.19802
G1 X52.709 Y131.812 E76.2579
G1 X51.934 Y133.28 E76.31588
G1 X47.017 Y138.197 E76.55872
G1 X45.589 Y139.115 E76.61801
G1 X38.826 Y141.003 E76.86322
G1 X36.995 Y141.132 E76.92733
G1 X30.302 Y139.178 E77.17082
G1 X28.793 Y138.367 E77.23065
G1 X23.703 Y133.277 E77.48204
G1 X22.812 Y131.902 E77.53926
G1 X20.9 Y125.351 E77.77759
G1 X20.769 Y123.478 E77.84316
G1 X22.73 Y116.778 E78.08696
G1 X23.435 Y115.42 E78.1404
G1 X24.305 Y114.502 E78.18456
G1 X24.089 Y114.141 E78.19926
G1 X23.855 Y112.719 E78.24959
G1 X23.8 Y83.332 E79.27587
G1 X24.171 Y81.822 E79.33018
G1 X25.011 Y80.203 E79.39387
G1 X26.245 Y79.051 E79.45283
G1 X27.857 Y78.089 E79.51839
G0 F6000 X27.995 Y78.472
G1 F1200 X29.346 Y78.25 E79.5662
G1 X190.621 Y78.2 E85.19843
G1 X192.036 Y78.548 E85.24932
G1 X193.552 Y79.334 E85.30896
G1 X194.628 Y80.487 E85.36403
G1 X195.528 Y81.995 E85.42536
G1 X195.75 Y83.346 E85.47318
G1 X195.8 Y112.621 E86.49555
G1 X195.452 Y114.036 E86.54644
G1 X194.666 Y115.552 E86.60608
G1 X193.513 Y116.628 E86.66116
G1 X192.005 Y117.528 E86.72249
G1 X190.654 Y117.75 E86.7703
G1 X75.8 Y117.8 E90.78136
G1 X75.8 Y124.621 E91.01957
G1 X75.452 Y126.036 E91.07046
G1 X74.666 Y127.552 E91.1301
G1 X73.513 Y128.628 E91.18518
G1 X72.005 Y129.528 E91.24651
G1 X70.654 Y129.75 E91.29432
G1 X53.379 Y129.8 E91.89762
G1 X52.891 Y129.68 E91.91517
G1 X52.336 Y131.661 E91.98702
G1 X51.608 Y133.04 E92.04147
G1 X46.765 Y137.883 E92.28066
G1 X45.422 Y138.746 E92.33641
G1 X38.758 Y140.607 E92.57805
G1 X37.038 Y140.728 E92.63826
G1 X30.452 Y138.805 E92.87787
G1 X29.036 Y138.044 E92.93401
G1 X24.017 Y133.025 E93.18189
G1 X23.179 Y131.732 E93.2357
G1 X21.296 Y125.28 E93.47043
G1 X21.173 Y123.522 E93.53197
G1 X23.103 Y116.927 E93.77195
G1 X23.764 Y115.654 E93.82204
G1 X24.803 Y114.557 E93.87481
G1 X24.472 Y114.003 E93.89735
G1 X24.25 Y112.654 E93.94509
G1 X24.2 Y83.379 E94.96747
G1 X24.548 Y81.964 E95.01836
G1 X25.334 Y80.448 E95.07799
G1 X26.487 Y79.372 E95.13307
G1 X27.995 Y78.472 E95.1944
G0 F6000 X28.133 Y78.855
G1 F1200 X29.411 Y78.645 E95.23963
G1 X190.575 Y78.6 E100.86798
G1 X191.893 Y78.924 E100.91538
G1 X193.307 Y79.657 E100.97101
G1 X194.307 Y80.729 E101.0222
G1 X195.145 Y82.133 E101.07931
G1 X195.355 Y83.411 E101.12454
G1 X195.4 Y112.575 E102.14304
G1 X195.076 Y113.893 E102.19043
G1 X194.343 Y115.307 E102.24606
G1 X193.271 Y116.307 E102.29725
G1 X191.867 Y117.145 E102.35436
G1 X190.589 Y117.355 E102.39959
G1 X75.4 Y117.4 E106.42235
G1 X75.4 Y124.575 E106.67292
G1 X75.076 Y125.893 E106.72032
G1 X74.343 Y127.307 E106.77594
G1 X73.271 Y128.307 E106.82714
G1 X71.867 Y129.145 E106.88424
G1 X70.589 Y129.355 E106.92947
G1 X53.425 Y129.4 E107.5289
G1 X52.61 Y129.2 E107.5582
G1 X51.963 Y131.51 E107.64198
G1 X51.282 Y132.8 E107.69292
G1 X46.513 Y137.569 E107.92846
G1 X45.255 Y138.377 E107.98067
G1 X38.69 Y140.211 E108.21872
G1 X37.081 Y140.324 E108.27505
G1 X30.602 Y138.432 E108.51077
G1 X29.279 Y137.721 E108.56322
G1 X24.329 Y132.771 E108.8077
G1 X23.547 Y131.564 E108.85792
G1 X21.692 Y125.209 E109.08912
G1 X21.577 Y123.566 E109.14664
G1 X23.476 Y117.076 E109.38279
G1 X24.093 Y115.888 E109.42954
G1 X25.302 Y114.612 E109.49093
G1 X24.855 Y113.865 E109.52133
G1 X24.645 Y112.589 E109.56649
G1 X24.6 Y83.425 E110.58499
G1 X24.924 Y82.107 E110.63239
G1 X25.657 Y80.693 E110.68802
G1 X26.729 Y79.693 E110.73921
G1 X28.133 Y78.855 E110.79631
G0 F6000 X28.271 Y79.238
G1 F1200 X29.476 Y79.04 E110.83896
G1 X190.529 Y79 E116.46344
G1 X191.75 Y79.3 E116.50735
G1 X193.06 Y79.979 E116.55888
G1 X193.988 Y80.974 E116.60639
G1 X194.762 Y82.271 E116.65914
G1 X194.96 Y83.476 E116.70179
G1 X195 Y112.529 E117.71641
G1 X194.7 Y113.75 E117.76032
G1 X194.021 Y115.06 E117.81185
G1 X193.026 Y115.988 E117.85937
G1 X191.729 Y116.762 E117.91211
G1 X190.524 Y116.96 E117.95476
G1 X75 Y117 E121.98922
G1 X75 Y124.529 E122.25216
G1 X74.7 Y125.75 E122.29607
G1 X74.021 Y127.06 E122.3476
G1 X73.026 Y127.988 E122.39511
G1 X71.729 Y128.762 E122.44786
G1 X70.524 Y128.96 E122.49051
G1 X53.471 Y129 E123.08605
G1 X52.329 Y128.72 E123.12712
G1 X51.59 Y131.359 E123.22282
G1 X50.956 Y132.56 E123.27025
G1 X46.258 Y137.258 E123.50228
G1 X45.091 Y138.008 E123.55073
G1 X38.622 Y139.815 E123.78529
G1 X37.124 Y139.92 E123.83774
G1 X30.752 Y138.059 E124.06956
G1 X29.522 Y137.398 E124.11833
G1 X24.643 Y132.519 E124.3593
G1 X23.914 Y131.394 E124.40611
G1 X22.088 Y125.138 E124.63371
G1 X21.981 Y123.61 E124.6872
G1 X23.849 Y117.225 E124.91953
G1 X24.422 Y116.122 E124.96294
G1 X25.8 Y114.667 E125.03293
G1 X25.238 Y113.727 E125.07117
G1 X25.04 Y112.524 E125.11375
G1 X25 Y83.471 E126.12837
G1 X25.3 Y82.25 E126.17228
G1 X25.979 Y80.94 E126.22381
G1 X26.974 Y80.012 E126.27133
G1 X28.271 Y79.238 E126.32408
G0 F6000 X28.411 Y79.621
G1 F1200 X29.541 Y79.435 E126.36407
G1 X190.483 Y79.4 E131.98467
G1 X191.607 Y79.676 E132.02509
G1 X192.813 Y80.301 E132.07253
G1 X193.666 Y81.216 E132.11621
G1 X194.379 Y82.411 E132.16481
G1 X194.565 Y83.541 E132.20481
G1 X194.6 Y112.483 E133.21555
G1 X194.324 Y113.607 E133.25597
G1 X193.699 Y114.813 E133.30341
G1 X192.784 Y115.666 E133.3471
G1 X191.589 Y116.379 E133.39569
G1 X190.459 Y116.565 E133.43569
G1 X74.6 Y116.6 E137.48185
G1 X74.6 Y124.483 E137.75715
G1 X74.324 Y125.607 E137.79757
G1 X73.699 Y126.813 E137.845
G1 X72.784 Y127.666 E137.88869
G1 X71.589 Y128.379 E137.93729
G1 X70.459 Y128.565 E137.97728
G1 X53.517 Y128.6 E138.56895
G1 X52.393 Y128.324 E138.60937
G1 X52.071 Y128.157 E138.62204
G1 X51.217 Y131.208 E138.73268
G1 X50.63 Y132.32 E138.7766
G1 X46.006 Y136.944 E139.00497
G1 X44.924 Y137.639 E139.04988
G1 X38.554 Y139.419 E139.28086
G1 X37.167 Y139.516 E139.32942
G1 X30.902 Y137.686 E139.55736
G1 X29.765 Y137.075 E139.60243
G1 X24.957 Y132.267 E139.8399
G1 X24.281 Y131.224 E139.8833
G1 X22.484 Y125.067 E140.10729
G1 X22.385 Y123.654 E140.15676
G1 X24.222 Y117.374 E140.38527
G1 X24.751 Y116.356 E140.42533
G1 X26.298 Y114.722 E140.50392
G1 X25.621 Y113.589 E140.55001
G1 X25.435 Y112.459 E140.59
G1 X25.4 Y83.517 E141.60075
G1 X25.676 Y82.393 E141.64117
G1 X26.301 Y81.187 E141.68861
G1 X27.216 Y80.334 E141.73229
G1 X28.411 Y79.621 E141.78089
G0 F6000 X28.551 Y80.004
G1 F1200 X29.606 Y79.83 E141.81823
G1 X190.436 Y79.8 E147.43492
G1 X191.465 Y80.053 E147.47193
G1 X192.566 Y80.623 E147.51523
G1 X193.344 Y81.458 E147.55508
G1 X193.996 Y82.551 E147.59953
G1 X194.17 Y83.606 E147.63687
G1 X194.2 Y112.436 E148.64371
G1 X193.947 Y113.465 E148.68071
G1 X193.377 Y114.566 E148.72401
G1 X192.542 Y115.344 E148.76387
G1 X191.449 Y115.996 E148.80831
G1 X190.394 Y116.17 E148.84565
G1 X74.2 Y116.2 E152.90351
G1 X74.2 Y124.436 E153.19114
G1 X73.947 Y125.465 E153.22815
G1 X73.377 Y126.566 E153.27145
G1 X72.542 Y127.344 E153.3113
G1 X71.449 Y127.996 E153.35575
G1 X70.394 Y128.17 E153.39309
G1 X53.564 Y128.2 E153.98085
G1 X52.535 Y127.947 E154.01785
G1 X51.818 Y127.576 E154.04605
G1 X50.844 Y131.057 E154.17228
G1 X50.304 Y132.08 E154.21268
G1 X45.751 Y136.633 E154.43755
G1 X44.76 Y137.27 E154.47869
G1 X38.486 Y139.023 E154.70619
G1 X37.211 Y139.112 E154.75083
G1 X31.052 Y137.313 E154.97491
G1 X30.008 Y136.752 E155.0163
G1 X25.269 Y132.013 E155.25035
G1 X24.649 Y131.056 E155.29017
G1 X22.88 Y124.996 E155.51064
G1 X22.789 Y123.698 E155.55608
G1 X24.595 Y117.523 E155.78076
G1 X25.08 Y116.59 E155.81749
G1 X26.836 Y114.735 E155.90669
G1 X26.634 Y114.505 E155.91738
G1 X26.004 Y113.449 E155.96033
G1 X25.83 Y112.394 E155.99767
G1 X25.8 Y83.564 E157.0045
G1 X26.053 Y82.535 E157.04151
G1 X26.623 Y81.434 E157.08481
G1 X27.458 Y80.656 E157.12466
G1 X28.551 Y80.004 E157.16911
G0 F6000 X28.691 Y80.387
G1 F1200 X29.671 Y80.225 E157.2038
G1 X190.39 Y80.2 E162.81661
G1 X191.322 Y80.429 E162.85013
G1 X192.319 Y80.945 E162.88933
G1 X193.022 Y81.7 E162.92536
G1 X193.613 Y82.691 E162.96566
G1 X193.775 Y83.671 E163.00035
G1 X193.8 Y112.39 E164.0033
G1 X193.571 Y113.322 E164.03682
G1 X193.055 Y114.319 E164.07603
G1 X192.3 Y115.022 E164.11205
G1 X191.309 Y115.613 E164.15235
G1 X190.329 Y115.775 E164.18704
G1 X73.8 Y115.8 E168.2566
G1 X73.8 Y124.39 E168.55659
G1 X73.571 Y125.322 E168.5901
G1 X73.055 Y126.319 E168.62931
G1 X72.3 Y127.022 E168.66534
G1 X71.309 Y127.613 E168.70563
G1 X70.329 Y127.775 E168.74032
G1 X53.61 Y127.8 E169.3242
G1 X52.678 Y127.571 E169.35772
G1 X51.742 Y127.087 E169.39452
G1 X51.579 Y126.946 E169.40204
G1 X50.471 Y130.906 E169.54565
G1 X49.978 Y131.84 E169.58253
G1 X45.499 Y136.319 E169.80375
G1 X44.593 Y136.901 E169.84135
G1 X38.418 Y138.627 E170.06527
G1 X37.255 Y138.708 E170.10598
G1 X31.202 Y136.94 E170.32621
G1 X30.251 Y136.429 E170.36391
G1 X25.583 Y131.761 E170.59446
G1 X25.016 Y130.886 E170.63087
G1 X23.276 Y124.925 E170.84773
G1 X23.193 Y123.742 E170.88915
G1 X24.967 Y117.674 E171.10993
