;FLAVOR:Marlin
;TIME:15362
;Filament used: 14.0807m
;Layer height: 0.2
;MINX:22.2
;MINY:88.2
;MINZ:0.2
;MAXX:197.8
;MAXY:131.8
;MAXZ:106
;TARGET_MACHINE.NAME:Creality Ender-3 Pro
;Generated with Cura_SteamEngine 5.6.0
M82 ;absolute extrusion mode
; Ender 3 Custom Start G-code
G92 E0 ; Reset Extruder
G28 ; Home all axes
G1 Z5.0 F3000 ; Move Z Axis up a bit during heating to not damage bed
M104 S175 ; Start heating up the nozzle most of the way
M190 S60 ; Start heating the bed, wait until target temperature reached
M109 S210 ; Finish heating the nozzle
G1 Z2.0 F3000 ; Move Z Axis up little to prevent scratching of Heat Bed
G1 X0.1 Y20 Z0.3 F5000.0 ; Move to start position
G1 X0.1 Y200.0 Z0.3 F1500.0 E15 ; Draw the first line
G1 X0.4 Y200.0 Z0.3 F5000.0 ; Move to side a little
G1 X0.4 Y20 Z0.3 F1500.0 E30 ; Draw the second line
G92 E0 ; Reset Extruder
G1 Z2.0 F3000 ; Move Z Axis up little to prevent scratching of Heat Bed
G1 X5 Y20 Z0.3 F5000.0 ; Move over to prevent blob squish
G92 E0
G92 E0
G1 F3000 E-6.5
;LAYER_COUNT:530
;LAYER:0
M107
G0 F6000 X27.303 Y88.557 Z0.2
;TYPE:SKIRT
G1 F3000 E0
G1 F1200 X29.021 Y88.275 E0.0608
G1 X190.853 Y88.2 E5.71248
G1 X192.749 Y88.666 E5.78067
G1 X194.777 Y89.719 E5.86047
G1 X196.236 Y91.28 E5.93509
G1 X197.443 Y93.303 E6.01736
G1 X197.725 Y95.021 E6.07816
G1 X197.8 Y124.853 E7.11999
G1 X197.334 Y126.749 E7.18818
G1 X196.281 Y128.777 E7.26798
G1 X194.72 Y130.236 E7.3426
G1 X192.697 Y131.443 E7.42487
G1 X190.979 Y131.725 E7.48567
G1 X29.147 Y131.8 E13.13735
G1 X27.251 Y131.334 E13.20553
G1 X25.223 Y130.281 E13.28534
G1 X23.764 Y128.72 E13.35996
G1 X22.557 Y126.697 E13.44222
G1 X22.275 Y124.979 E13.50303
G1 X22.2 Y95.147 E14.54486
G1 X22.666 Y93.251 E14.61304
G1 X23.719 Y91.223 E14.69284
G1 X25.28 Y89.764 E14.76746
G1 X27.303 Y88.557 E14.84973
G0 F6000 X27.443 Y88.94
G1 F1200 X29.086 Y88.67 E14.90788
G1 X190.807 Y88.6 E20.55569
G1 X192.606 Y89.042 E20.62038
G1 X194.532 Y90.042 E20.69617
G1 X195.912 Y91.519 E20.76676
G1 X197.06 Y93.443 E20.84501
G1 X197.33 Y95.086 E20.90315
G1 X197.4 Y124.807 E21.94111
G1 X196.958 Y126.606 E22.0058
G1 X195.958 Y128.532 E22.08159
G1 X194.481 Y129.912 E22.15218
G1 X192.557 Y131.06 E22.23043
G1 X190.914 Y131.33 E22.28858
G1 X29.193 Y131.4 E27.93638
G1 X27.394 Y130.958 E28.00108
G1 X25.468 Y129.958 E28.07686
G1 X24.088 Y128.481 E28.14746
G1 X22.94 Y126.557 E28.2257
G1 X22.67 Y124.914 E28.28385
G1 X22.6 Y95.193 E29.3218
G1 X23.042 Y93.394 E29.3865
G1 X24.042 Y91.468 E29.46229
G1 X25.519 Y90.088 E29.53288
G1 X27.443 Y88.94 E29.61112
G0 F6000 X27.581 Y89.323
G1 F1200 X29.151 Y89.065 E29.66669
G1 X190.76 Y89 E35.31058
G1 X192.464 Y89.419 E35.37186
G1 X194.287 Y90.365 E35.44359
G1 X195.591 Y91.761 E35.5103
G1 X196.677 Y93.581 E35.58432
G1 X196.935 Y95.151 E35.63988
G1 X197 Y124.76 E36.67393
G1 X196.581 Y126.464 E36.73521
G1 X195.635 Y128.287 E36.80693
G1 X194.239 Y129.591 E36.87365
G1 X192.419 Y130.677 E36.94766
G1 X190.849 Y130.935 E37.00323
G1 X29.24 Y131 E42.64712
G1 X27.536 Y130.581 E42.7084
G1 X25.713 Y129.635 E42.78013
G1 X24.409 Y128.239 E42.84684
G1 X23.323 Y126.419 E42.92086
G1 X23.065 Y124.849 E42.97642
G1 X23 Y95.24 E44.01047
G1 X23.419 Y93.536 E44.07175
G1 X24.365 Y91.713 E44.14347
G1 X25.761 Y90.409 E44.21019
G1 X27.581 Y89.323 E44.2842
G0 F6000 X27.719 Y89.706
G1 F1200 X29.216 Y89.46 E44.33718
G1 X190.714 Y89.4 E49.9772
G1 X192.321 Y89.795 E50.03499
G1 X194.042 Y90.688 E50.10271
G1 X195.27 Y92.003 E50.16554
G1 X196.294 Y93.719 E50.23533
G1 X196.54 Y95.216 E50.28831
G1 X196.6 Y124.714 E51.31847
G1 X196.205 Y126.321 E51.37627
G1 X195.312 Y128.042 E51.44398
G1 X193.997 Y129.27 E51.50681
G1 X192.281 Y130.294 E51.5766
G1 X190.784 Y130.54 E51.62958
G1 X29.286 Y130.6 E57.2696
G1 X27.679 Y130.205 E57.32739
G1 X25.958 Y129.312 E57.3951
G1 X24.73 Y127.997 E57.45794
G1 X23.706 Y126.281 E57.52772
G1 X23.46 Y124.784 E57.58071
G1 X23.4 Y95.286 E58.61087
G1 X23.795 Y93.679 E58.66866
G1 X24.688 Y91.958 E58.73637
G1 X26.003 Y90.73 E58.79921
G1 X27.719 Y89.706 E58.869
G0 F6000 X27.857 Y90.089
G1 F1200 X29.281 Y89.855 E58.91939
G1 X190.668 Y89.8 E64.55554
G1 X192.178 Y90.171 E64.60984
G1 X193.797 Y91.011 E64.67354
G1 X194.949 Y92.245 E64.73249
G1 X195.911 Y93.857 E64.79805
G1 X196.145 Y95.281 E64.84845
G1 X196.2 Y124.668 E65.87474
G1 X195.829 Y126.178 E65.92904
G1 X194.989 Y127.797 E65.99274
G1 X193.755 Y128.949 E66.05169
G1 X192.143 Y129.911 E66.11725
G1 X190.719 Y130.145 E66.16765
G1 X29.332 Y130.2 E71.80379
G1 X27.822 Y129.829 E71.85809
G1 X26.203 Y128.989 E71.92179
G1 X25.051 Y127.755 E71.98074
G1 X24.089 Y126.143 E72.0463
G1 X23.855 Y124.719 E72.0967
G1 X23.8 Y95.332 E73.12299
G1 X24.171 Y93.822 E73.17729
G1 X25.011 Y92.203 E73.24099
G1 X26.245 Y91.051 E73.29994
G1 X27.857 Y90.089 E73.3655
G0 F6000 X27.995 Y90.472
G1 F1200 X29.346 Y90.25 E73.41332
G1 X190.621 Y90.2 E79.04555
G1 X192.036 Y90.548 E79.09644
G1 X193.552 Y91.334 E79.15607
G1 X194.628 Y92.487 E79.21115
G1 X195.528 Y93.995 E79.27248
G1 X195.75 Y95.346 E79.32029
G1 X195.8 Y124.621 E80.34267
G1 X195.452 Y126.036 E80.39356
G1 X194.666 Y127.552 E80.45319
G1 X193.513 Y128.628 E80.50827
G1 X192.005 Y129.528 E80.5696
G1 X190.654 Y129.75 E80.61742
G1 X29.379 Y129.8 E86.24965
G1 X27.964 Y129.452 E86.30053
G1 X26.448 Y128.666 E86.36017
G1 X25.372 Y127.513 E86.41525
G1 X24.472 Y126.005 E86.47658
G1 X24.25 Y124.654 E86.52439
G1 X24.2 Y95.379 E87.54677
G1 X24.548 Y93.964 E87.59766
G1 X25.334 Y92.448 E87.65729
G1 X26.487 Y91.372 E87.71237
G1 X27.995 Y90.472 E87.7737
G0 F6000 X28.133 Y90.855
G1 F1200 X29.411 Y90.645 E87.81893
G1 X190.575 Y90.6 E93.44728
G1 X191.893 Y90.924 E93.49468
G1 X193.307 Y91.657 E93.5503
G1 X194.307 Y92.729 E93.6015
G1 X195.145 Y94.133 E93.6586
G1 X195.355 Y95.411 E93.70383
G1 X195.4 Y124.575 E94.72233
G1 X195.076 Y125.893 E94.76973
G1 X194.343 Y127.307 E94.82536
G1 X193.271 Y128.307 E94.87655
G1 X191.867 Y129.145 E94.93365
G1 X190.589 Y129.355 E94.97889
G1 X29.425 Y129.4 E100.60724
G1 X28.107 Y129.076 E100.65464
G1 X26.693 Y128.343 E100.71026
G1 X25.693 Y127.271 E100.76146
G1 X24.855 Y125.867 E100.81856
G1 X24.645 Y124.589 E100.86379
G1 X24.6 Y95.425 E101.88229
G1 X24.924 Y94.107 E101.92969
G1 X25.657 Y92.693 E101.98531
G1 X26.729 Y91.693 E102.03651
G1 X28.133 Y90.855 E102.09361
G0 F6000 X28.271 Y91.238
G1 F1200 X29.476 Y91.04 E102.13626
G1 X190.529 Y91 E107.76073
G1 X191.75 Y91.3 E107.80464
G1 X193.06 Y91.979 E107.85617
G1 X193.988 Y92.974 E107.90369
G1 X194.762 Y94.271 E107.95644
G1 X194.96 Y95.476 E107.99908
G1 X195 Y124.529 E109.01371
G1 X194.7 Y125.75 E109.05762
G1 X194.021 Y127.06 E109.10914
G1 X193.026 Y127.988 E109.15666
G1 X191.729 Y128.762 E109.20941
G1 X190.524 Y128.96 E109.25206
G1 X29.471 Y129 E114.87653
G1 X28.25 Y128.7 E114.92044
G1 X26.94 Y128.021 E114.97197
G1 X26.012 Y127.026 E115.01949
G1 X25.238 Y125.729 E115.07223
G1 X25.04 Y124.524 E115.11488
G1 X25 Y95.471 E116.1295
G1 X25.3 Y94.25 E116.17341
G1 X25.979 Y92.94 E116.22494
G1 X26.974 Y92.012 E116.27246
G1 X28.271 Y91.238 E116.32521
G0 F6000 X28.411 Y91.621
G1 F1200 X29.541 Y91.435 E116.3652
G1 X190.483 Y91.4 E121.9858
G1 X191.607 Y91.676 E122.02622
G1 X192.813 Y92.301 E122.07366
G1 X193.666 Y93.216 E122.11735
G1 X194.379 Y94.411 E122.16594
G1 X194.565 Y95.541 E122.20594
G1 X194.6 Y124.483 E123.21668
G1 X194.324 Y125.607 E123.2571
G1 X193.699 Y126.813 E123.30454
G1 X192.784 Y127.666 E123.34823
G1 X191.589 Y128.379 E123.39682
G1 X190.459 Y128.565 E123.43682
G1 X29.517 Y128.6 E129.05742
G1 X28.393 Y128.324 E129.09784
G1 X27.187 Y127.699 E129.14527
G1 X26.334 Y126.784 E129.18896
G1 X25.621 Y125.589 E129.23756
G1 X25.435 Y124.459 E129.27755
G1 X25.4 Y95.517 E130.2883
G1 X25.676 Y94.393 E130.32872
G1 X26.301 Y93.187 E130.37616
G1 X27.216 Y92.334 E130.41984
G1 X28.411 Y91.621 E130.46844
G0 F6000 X28.551 Y92.004
G1 F1200 X29.606 Y91.83 E130.50578
G1 X190.436 Y91.8 E136.12247
G1 X191.465 Y92.053 E136.15948
G1 X192.566 Y92.623 E136.20277
G1 X193.344 Y93.458 E136.24263
G1 X193.996 Y94.551 E136.28708
G1 X194.17 Y95.606 E136.32442
G1 X194.2 Y124.436 E137.33125
G1 X193.947 Y125.465 E137.36826
G1 X193.377 Y126.566 E137.41156
G1 X192.542 Y127.344 E137.45141
G1 X191.449 Y127.996 E137.49586
G1 X190.394 Y128.17 E137.5332
G1 X29.564 Y128.2 E143.14989
G1 X28.535 Y127.947 E143.1869
G1 X27.434 Y127.377 E143.2302
G1 X26.656 Y126.542 E143.27005
G1 X26.004 Y125.449 E143.3145
G1 X25.83 Y124.394 E143.35184
G1 X25.8 Y95.564 E144.35868
G1 X26.053 Y94.535 E144.39568
G1 X26.623 Y93.434 E144.43898
G1 X27.458 Y92.656 E144.47884
G1 X28.551 Y92.004 E144.52328
G0 F6000 X28.691 Y92.387
G1 F1200 X29.671 Y92.225 E144.55797
G1 X190.39 Y92.2 E150.17078
G1 X191.322 Y92.429 E150.2043
G1 X192.319 Y92.945 E150.24351
G1 X193.022 Y93.7 E150.27953
G1 X193.613 Y94.691 E150.31983
G1 X193.775 Y95.671 E150.35452
G1 X193.8 Y124.39 E151.35748
G1 X193.571 Y125.322 E151.39099
G1 X193.055 Y126.319 E151.4302
G1 X192.3 Y127.022 E151.46623
G1 X191.309 Y127.613 E151.50652
G1 X190.329 Y127.775 E151.54121
G1 X29.61 Y127.8 E157.15402
G1 X28.678 Y127.571 E157.18754
G1 X27.681 Y127.055 E157.22674
G1 X26.978 Y126.3 E157.26277
G1 X26.387 Y125.309 E157.30307
G1 X26.225 Y124.329 E157.33776
G1 X26.2 Y95.61 E158.34072
G1 X26.429 Y94.678 E158.37423
G1 X26.945 Y93.681 E158.41344
G1 X27.7 Y92.978 E158.44946
G1 X28.691 Y92.387 E158.48976
G0 F6000 X28.831 Y92.77
G1 F1200 X29.736 Y92.62 E158.5218
G1 X190.344 Y92.6 E164.13073
G1 X191.179 Y92.805 E164.16076
G1 X192.074 Y93.268 E164.19595
G1 X192.698 Y93.939 E164.22795
G1 X193.23 Y94.831 E164.26422
G1 X193.38 Y95.736 E164.29626
G1 X193.4 Y124.344 E165.29534
G1 X193.195 Y125.179 E165.32537
G1 X192.732 Y126.074 E165.36056
G1 X192.061 Y126.698 E165.39256
G1 X191.169 Y127.23 E165.42883
G1 X190.264 Y127.38 E165.46087
G1 X29.656 Y127.4 E171.0698
G1 X28.821 Y127.195 E171.09983
G1 X27.926 Y126.732 E171.13502
G1 X27.302 Y126.061 E171.16702
G1 X26.77 Y125.169 E171.20329
G1 X26.62 Y124.264 E171.23533
G1 X26.6 Y95.656 E172.23441
G1 X26.805 Y94.821 E172.26444
G1 X27.268 Y93.926 E172.29963
G1 X27.939 Y93.302 E172.33163
G1 X28.831 Y92.77 E172.3679
G0 F6000 X28.971 Y93.153
G1 F1200 X29.802 Y93.015 E172.39732
G1 X190.298 Y93 E178.00234
G1 X191.036 Y93.181 E178.02888
G1 X191.829 Y93.591 E178.06006
G1 X192.374 Y94.178 E178.08803
G1 X192.847 Y94.971 E178.12027
G1 X192.985 Y95.802 E178.14969
G1 X193 Y124.298 E179.14486
G1 X192.819 Y125.036 E179.1714
G1 X192.409 Y125.829 E179.20258
G1 X191.822 Y126.374 E179.23055
G1 X191.029 Y126.847 E179.2628
G1 X190.198 Y126.985 E179.29222
G1 X29.702 Y127 E184.89724
G1 X28.964 Y126.819 E184.92378
G1 X28.171 Y126.409 E184.95495
G1 X27.626 Y125.822 E184.98293
G1 X27.153 Y125.029 E185.01517
G1 X27.015 Y124.198 E185.04459
G1 X27 Y95.702 E186.03976
G1 X27.181 Y94.964 E186.0663
G1 X27.591 Y94.171 E186.09748
G1 X28.178 Y93.626 E186.12545
G1 X28.971 Y93.153 E186.15769
G0 F6000 X29.111 Y93.536
G1 F1200 X29.868 Y93.41 E186.1845
G1 X190.248 Y93.4 E191.78547
G1 X190.897 Y93.559 E191.8088
G1 X191.584 Y93.914 E191.83581
G1 X192.05 Y94.417 E191.85976
G1 X192.464 Y95.111 E191.88798
G1 X192.59 Y95.868 E191.91478
G1 X192.6 Y124.248 E192.9059
G1 X192.441 Y124.897 E192.92923
G1 X192.086 Y125.584 E192.95624
G1 X191.583 Y126.05 E192.98019
G1 X190.889 Y126.464 E193.00841
G1 X190.132 Y126.59 E193.03521
G1 X29.752 Y126.6 E198.63618
G1 X29.103 Y126.441 E198.65952
G1 X28.416 Y126.086 E198.68652
G1 X27.95 Y125.583 E198.71047
G1 X27.536 Y124.889 E198.73869
G1 X27.41 Y124.132 E198.76549
G1 X27.4 Y95.752 E199.75661
G1 X27.559 Y95.103 E199.77995
G1 X27.914 Y94.416 E199.80695
G1 X28.417 Y93.95 E199.8309
G1 X29.111 Y93.536 E199.85912
G0 F6000 X29.251 Y93.919
G1 F1200 X29.934 Y93.805 E199.8833
G1 X190.198 Y93.8 E205.48022
G1 X190.758 Y93.937 E205.50036
G1 X191.338 Y94.237 E205.52316
G1 X191.726 Y94.656 E205.54311
G1 X192.081 Y95.251 E205.5673
G1 X192.195 Y95.934 E205.59148
G1 X192.2 Y124.198 E206.57855
G1 X192.063 Y124.758 E206.59869
G1 X191.763 Y125.338 E206.62149
G1 X191.344 Y125.726 E206.64143
G1 X190.749 Y126.081 E206.66563
G1 X190.066 Y126.195 E206.68981
G1 X29.802 Y126.2 E212.28674
G1 X29.242 Y126.063 E212.30687
G1 X28.662 Y125.763 E212.32967
G1 X28.274 Y125.344 E212.34962
G1 X27.919 Y124.749 E212.37381
G1 X27.805 Y124.066 E212.398
G1 X27.8 Y95.802 E213.38506
G1 X27.937 Y95.242 E213.4052
G1 X28.237 Y94.662 E213.428
G1 X28.656 Y94.274 E213.44794
G1 X29.251 Y93.919 E213.47214
G0 F6000 X29.389 Y94.302
G1 F1200 X30 Y94.2 E213.49377
G1 X190.148 Y94.2 E219.08665
G1 X190.619 Y94.315 E219.10358
G1 X191.092 Y94.56 E219.12218
G1 X191.405 Y94.898 E219.13827
G1 X191.698 Y95.389 E219.15824
G1 X191.8 Y96 E219.17987
G1 X191.8 Y124.148 E220.16289
G1 X191.685 Y124.619 E220.17982
G1 X191.44 Y125.092 E220.19842
G1 X191.102 Y125.405 E220.21451
G1 X190.611 Y125.698 E220.23448
G1 X190 Y125.8 E220.25611
G1 X29.852 Y125.8 E225.84898
G1 X29.381 Y125.685 E225.86592
G1 X28.908 Y125.44 E225.88452
G1 X28.595 Y125.102 E225.90061
G1 X28.302 Y124.611 E225.92057
G1 X28.2 Y124 E225.94221
G1 X28.2 Y95.852 E226.92522
G1 X28.315 Y95.381 E226.94216
G1 X28.56 Y94.908 E226.96076
G1 X28.898 Y94.595 E226.97685
G1 X29.389 Y94.302 E226.99682
G0 F6000 X29.527 Y94.685
G1 F1200 X29.14 Y94.916 E227.01256
G1 X28.883 Y95.154 E227.02479
G1 X28.693 Y95.52 E227.03919
G1 X28.6 Y95.902 E227.05292
G1 X28.6 Y124 E228.03419
G1 X28.685 Y124.473 E228.05097
G1 X28.916 Y124.86 E228.06671
G1 X29.154 Y125.117 E228.07895
G1 X29.52 Y125.307 E228.09335
G1 X29.902 Y125.4 E228.10708
G1 X190 Y125.4 E233.6982
G1 X190.473 Y125.315 E233.71499
G1 X190.86 Y125.084 E233.73073
G1 X191.117 Y124.846 E233.74296
G1 X191.307 Y124.48 E233.75736
G1 X191.4 Y124.098 E233.77109
G1 X191.4 Y96 E234.75236
G1 X191.315 Y95.527 E234.76914
G1 X191.084 Y95.14 E234.78488
G1 X190.846 Y94.883 E234.79712
G1 X190.48 Y94.693 E234.81152
G1 X190.098 Y94.6 E234.82525
G1 X30 Y94.6 E240.41637
G1 X29.527 Y94.685 E240.43316
G0 F6000 X29.672 Y95.065
G1 F1200 X30 Y95 E240.44483
G1 X190.049 Y95 E246.03425
G1 X190.338 Y95.07 E246.04463
G1 X190.601 Y95.207 E246.05499
G1 X190.74 Y95.345 E246.06183
G1 X190.935 Y95.672 E246.07513
G1 X191 Y96 E246.0868
G1 X191 Y124.049 E247.06636
G1 X190.93 Y124.338 E247.07675
G1 X190.793 Y124.601 E247.0871
G1 X190.655 Y124.74 E247.09394
G1 X190.328 Y124.935 E247.10724
G1 X190 Y125 E247.11892
G1 X29.951 Y125 E252.70833
G1 X29.662 Y124.93 E252.71872
G1 X29.399 Y124.793 E252.72907
G1 X29.26 Y124.655 E252.73591
G1 X29.065 Y124.328 E252.74921
G1 X29 Y124 E252.76089
G1 X29 Y95.951 E253.74045
G1 X29.07 Y95.662 E253.75083
G1 X29.207 Y95.399 E253.76119
G1 X29.345 Y95.26 E253.76803
G1 X29.672 Y95.065 E253.78132
G0 F6000 X30 Y95.8
G1 F1200 X190 Y95.8 E259.36903
G1 X190.119 Y95.839 E259.3734
G1 X190.2 Y96 E259.37969
G1 X190.2 Y124 E260.35754
G1 X190.161 Y124.119 E260.36192
G1 X190 Y124.2 E260.36821
G1 X30 Y124.2 E265.95591
G1 X29.881 Y124.161 E265.96029
G1 X29.8 Y124 E265.96658
G1 X29.8 Y96 E266.94443
G1 X29.839 Y95.881 E266.9488
G1 X30 Y95.8 E266.95509
G0 F6000 X29.82 Y95.443
G1 F1200 X30 Y95.4 E266.96156
G1 X190 Y95.4 E272.54926
G1 X190.244 Y95.459 E272.55803
G1 X190.396 Y95.55 E272.56421
G1 X190.557 Y95.82 E272.57519
G1 X190.6 Y96 E272.58166
G1 X190.6 Y124 E273.5595
G1 X190.541 Y124.244 E273.56827
G1 X190.45 Y124.396 E273.57446
G1 X190.18 Y124.557 E273.58544
G1 X190 Y124.6 E273.5919
G1 X30 Y124.6 E279.1796
G1 X29.756 Y124.541 E279.18837
G1 X29.604 Y124.45 E279.19456
G1 X29.443 Y124.18 E279.20553
G1 X29.4 Y124 E279.212
G1 X29.4 Y96 E280.18984
G1 X29.459 Y95.756 E280.19861
G1 X29.55 Y95.604 E280.2048
G1 X29.82 Y95.443 E280.21578
G1 F3000 E273.71578
;MESH:doorFrame_upper.stl
G0 F6000 X161.911 Y114.087
