;FLAVOR:Marlin
;TIME:49107
;Filament used: 66.4273m
;Layer height: 0.2
;MINX:2.2
;MINY:22.2
;MINZ:0.2
;MAXX:217.8
;MAXY:197.8
;MAXZ:104
;TARGET_MACHINE.NAME:Creality Ender-3 Pro
;Generated with Cura_SteamEngine 5.6.0
M82 ;absolute extrusion mode
; Ender 3 Custom Start G-code
G92 E0 ; Reset Extruder
G28 ; Home all axes
G1 Z5.0 F3000 ; Move Z Axis up a bit during heating to not damage bed
M104 S175 ; Start heating up the nozzle most of the way
M190 S60 ; Start heating the bed, wait until target temperature reached
M109 S210 ; Finish heating the nozzle
G1 Z2.0 F3000 ; Move Z Axis up little to prevent scratching of Heat Bed
G1 X0.1 Y20 Z0.3 F5000.0 ; Move to start position
G1 X0.1 Y200.0 Z0.3 F1500.0 E15 ; Draw the first line
G1 X0.4 Y200.0 Z0.3 F5000.0 ; Move to side a little
G1 X0.4 Y20 Z0.3 F1500.0 E30 ; Draw the second line
G92 E0 ; Reset Extruder
G1 Z2.0 F3000 ; Move Z Axis up little to prevent scratching of Heat Bed
G1 X5 Y20 Z0.3 F5000.0 ; Move over to prevent blob squish
G92 E0
G92 E0
G1 F3000 E-6.5
;LAYER_COUNT:520
;LAYER:0
M107
G0 F6000 X35.319 Y25.223 Z0.2
;TYPE:SKIRT
G1 F3000 E0
G1 F1200 X36.88 Y23.764 E0.07462
G1 X38.903 Y22.557 E0.15689
G1 X40.621 Y22.275 E0.21769
G1 X210.853 Y22.2 E6.16273
G1 X212.749 Y22.666 E6.23091
G1 X214.777 Y23.719 E6.31071
G1 X216.236 Y25.28 E6.38533
G1 X217.443 Y27.303 E6.4676
G1 X217.725 Y29.021 E6.5284
G1 X217.8 Y190.853 E12.18009
G1 X217.334 Y192.749 E12.24827
G1 X216.281 Y194.777 E12.32807
G1 X214.72 Y196.236 E12.40269
G1 X212.697 Y197.443 E12.48496
G1 X210.979 Y197.725 E12.54576
G1 X9.147 Y197.8 E19.59437
G1 X7.251 Y197.334 E19.66255
G1 X5.223 Y196.281 E19.74236
G1 X3.764 Y194.72 E19.81698
G1 X2.557 Y192.697 E19.89924
G1 X2.275 Y190.979 E19.96005
G1 X2.2 Y93.147 E23.37665
G1 X2.666 Y91.251 E23.44483
G1 X3.719 Y89.223 E23.52463
G1 X5.28 Y87.764 E23.59925
G1 X7.303 Y86.557 E23.68152
G1 X9.021 Y86.275 E23.74232
G1 X33.8 Y86.208 E24.60769
G1 X33.8 Y29.147 E26.60044
G1 X34.266 Y27.251 E26.66862
G1 X35.319 Y25.223 E26.74842
G0 F6000 X35.642 Y25.468
G1 F1200 X37.119 Y24.088 E26.81902
G1 X39.043 Y22.94 E26.89726
G1 X40.686 Y22.67 E26.95541
G1 X210.807 Y22.6 E32.89657
G1 X212.606 Y23.042 E32.96126
G1 X214.532 Y24.042 E33.03705
G1 X215.912 Y25.519 E33.10764
G1 X217.06 Y27.443 E33.18589
G1 X217.33 Y29.086 E33.24404
G1 X217.4 Y190.807 E38.89184
G1 X216.958 Y192.606 E38.95654
G1 X215.958 Y194.532 E39.03233
G1 X214.481 Y195.912 E39.10292
G1 X212.557 Y197.06 E39.18116
G1 X210.914 Y197.33 E39.23931
G1 X9.193 Y197.4 E46.28404
G1 X7.394 Y196.958 E46.34874
G1 X5.468 Y195.958 E46.42453
G1 X4.088 Y194.481 E46.49512
G1 X2.94 Y192.557 E46.57336
G1 X2.67 Y190.914 E46.63151
G1 X2.6 Y93.193 E50.04424
G1 X3.042 Y91.394 E50.10893
G1 X4.042 Y89.468 E50.18472
G1 X5.519 Y88.088 E50.25531
G1 X7.443 Y86.94 E50.33356
G1 X9.086 Y86.67 E50.3917
G1 X34.2 Y86.607 E51.26877
G1 X34.2 Y29.193 E53.27384
G1 X34.642 Y27.394 E53.33854
G1 X35.642 Y25.468 E53.41433
G0 F6000 X35.965 Y25.713
G1 F1200 X37.361 Y24.409 E53.48104
G1 X39.181 Y23.323 E53.55506
G1 X40.751 Y23.065 E53.61062
G1 X210.76 Y23 E59.54787
G1 X212.464 Y23.419 E59.60915
G1 X214.287 Y24.365 E59.68088
G1 X215.591 Y25.761 E59.74759
G1 X216.677 Y27.581 E59.82161
G1 X216.935 Y29.151 E59.87717
G1 X217 Y190.76 E65.52107
G1 X216.581 Y192.464 E65.58235
G1 X215.635 Y194.287 E65.65407
G1 X214.239 Y195.591 E65.72079
G1 X212.419 Y196.677 E65.7948
G1 X210.849 Y196.935 E65.85037
G1 X9.24 Y197 E72.89119
G1 X7.536 Y196.581 E72.95247
G1 X5.713 Y195.635 E73.0242
G1 X4.409 Y194.239 E73.09091
G1 X3.323 Y192.419 E73.16493
G1 X3.065 Y190.849 E73.22049
G1 X3 Y93.24 E76.6293
G1 X3.419 Y91.536 E76.69059
G1 X4.365 Y89.713 E76.76231
G1 X5.761 Y88.409 E76.82903
G1 X7.581 Y87.323 E76.90304
G1 X9.151 Y87.065 E76.95861
G1 X34.6 Y87.006 E77.84737
G1 X34.6 Y29.24 E79.86474
G1 X35.019 Y27.536 E79.92602
G1 X35.965 Y25.713 E79.99775
G0 F6000 X36.288 Y25.958
G1 F1200 X37.603 Y24.73 E80.06058
G1 X39.319 Y23.706 E80.13037
G1 X40.816 Y23.46 E80.18335
G1 X210.714 Y23.4 E86.11672
G1 X212.321 Y23.795 E86.17451
G1 X214.042 Y24.688 E86.24222
G1 X215.27 Y26.003 E86.30506
G1 X216.294 Y27.719 E86.37485
G1 X216.54 Y29.216 E86.42783
G1 X216.6 Y190.714 E92.06785
G1 X216.205 Y192.321 E92.12564
G1 X215.312 Y194.042 E92.19335
G1 X213.997 Y195.27 E92.25618
G1 X212.281 Y196.294 E92.32597
G1 X210.784 Y196.54 E92.37895
G1 X9.286 Y196.6 E99.4159
G1 X7.679 Y196.205 E99.47369
G1 X5.958 Y195.312 E99.5414
G1 X4.73 Y193.997 E99.60423
G1 X3.706 Y192.281 E99.67402
G1 X3.46 Y190.784 E99.727
G1 X3.4 Y93.286 E103.13194
G1 X3.795 Y91.679 E103.18973
G1 X4.688 Y89.958 E103.25744
G1 X6.003 Y88.73 E103.32028
G1 X7.719 Y87.706 E103.39007
G1 X9.216 Y87.46 E103.44305
G1 X35 Y87.405 E104.34351
G1 X35 Y29.286 E106.37321
G1 X35.395 Y27.679 E106.431
G1 X36.288 Y25.958 E106.49871
G0 F6000 X36.611 Y26.203
G1 F1200 X37.845 Y25.051 E106.55767
G1 X39.457 Y24.089 E106.62322
G1 X40.881 Y23.855 E106.67362
G1 X210.668 Y23.8 E112.60312
G1 X212.178 Y24.171 E112.65742
G1 X213.797 Y25.011 E112.72112
G1 X214.949 Y26.245 E112.78007
G1 X215.911 Y27.857 E112.84563
G1 X216.145 Y29.281 E112.89603
G1 X216.2 Y190.668 E118.53217
G1 X215.829 Y192.178 E118.58647
G1 X214.989 Y193.797 E118.65017
G1 X213.755 Y194.949 E118.70913
G1 X212.143 Y195.911 E118.77468
G1 X210.719 Y196.145 E118.82508
G1 X9.332 Y196.2 E125.85815
G1 X7.822 Y195.829 E125.91245
G1 X6.203 Y194.989 E125.97615
G1 X5.051 Y193.755 E126.03511
G1 X4.089 Y192.143 E126.10066
G1 X3.855 Y190.719 E126.15106
G1 X3.8 Y93.332 E129.55212
G1 X4.171 Y91.822 E129.60642
G1 X5.011 Y90.203 E129.67012
G1 X6.245 Y89.051 E129.72908
G1 X7.857 Y88.089 E129.79464
G1 X9.281 Y87.855 E129.84503
G1 X35.4 Y87.804 E130.75719
G1 X35.4 Y29.332 E132.79922
G1 X35.771 Y27.822 E132.85352
G1 X36.611 Y26.203 E132.91722
G0 F6000 X36.934 Y26.448
G1 F1200 X38.087 Y25.372 E132.9723
G1 X39.595 Y24.472 E133.03363
G1 X40.946 Y24.25 E133.08144
G1 X210.621 Y24.2 E139.00702
G1 X212.036 Y24.548 E139.05791
G1 X213.552 Y25.334 E139.11755
G1 X214.628 Y26.487 E139.17263
G1 X215.528 Y27.995 E139.23396
G1 X215.75 Y29.346 E139.28177
G1 X215.8 Y190.621 E144.914
G1 X215.452 Y192.036 E144.96489
G1 X214.666 Y193.552 E145.02453
G1 X213.513 Y194.628 E145.0796
G1 X212.005 Y195.528 E145.14093
G1 X210.654 Y195.75 E145.18875
G1 X9.379 Y195.8 E152.2179
G1 X7.964 Y195.452 E152.26879
G1 X6.448 Y194.666 E152.32843
G1 X5.372 Y193.513 E152.3835
G1 X4.472 Y192.005 E152.44483
G1 X4.25 Y190.654 E152.49265
G1 X4.2 Y93.379 E155.8898
G1 X4.548 Y91.964 E155.94069
G1 X5.334 Y90.448 E156.00032
G1 X6.487 Y89.372 E156.0554
G1 X7.995 Y88.472 E156.11673
G1 X9.346 Y88.25 E156.16454
G1 X35.8 Y88.203 E157.0884
G1 X35.8 Y29.379 E159.14272
G1 X36.148 Y27.964 E159.19361
G1 X36.934 Y26.448 E159.25324
G0 F6000 X37.257 Y26.693
G1 F1200 X38.329 Y25.693 E159.30444
G1 X39.733 Y24.855 E159.36154
G1 X41.011 Y24.645 E159.40677
G1 X210.575 Y24.6 E165.32848
G1 X211.893 Y24.924 E165.37588
G1 X213.307 Y25.657 E165.4315
G1 X214.307 Y26.729 E165.4827
G1 X215.145 Y28.133 E165.5398
G1 X215.355 Y29.411 E165.58503
G1 X215.4 Y190.575 E171.21339
G1 X215.076 Y191.893 E171.26079
G1 X214.343 Y193.307 E171.31641
G1 X213.271 Y194.307 E171.36761
G1 X211.867 Y195.145 E171.42471
G1 X210.589 Y195.355 E171.46994
G1 X9.425 Y195.4 E178.49522
G1 X8.107 Y195.076 E178.54262
G1 X6.693 Y194.343 E178.59824
G1 X5.693 Y193.271 E178.64944
G1 X4.855 Y191.867 E178.70654
G1 X4.645 Y190.589 E178.75177
G1 X4.6 Y93.425 E182.14504
G1 X4.924 Y92.107 E182.19244
G1 X5.657 Y90.693 E182.24806
G1 X6.729 Y89.693 E182.29926
G1 X8.133 Y88.855 E182.35636
G1 X9.411 Y88.645 E182.40159
G1 X36.2 Y88.602 E183.33715
G1 X36.2 Y29.425 E185.4038
G1 X36.524 Y28.107 E185.45119
G1 X37.257 Y26.693 E185.50682
G0 F6000 X37.579 Y26.94
G1 F1200 X38.574 Y26.012 E185.55433
G1 X39.871 Y25.238 E185.60708
G1 X41.076 Y25.04 E185.64973
G1 X210.529 Y25 E191.56756
G1 X211.75 Y25.3 E191.61147
G1 X213.06 Y25.979 E191.663
G1 X213.988 Y26.974 E191.71051
G1 X214.762 Y28.271 E191.76326
G1 X214.96 Y29.476 E191.80591
G1 X215 Y190.529 E197.43038
G1 X214.7 Y191.75 E197.47429
G1 X214.021 Y193.06 E197.52582
G1 X213.026 Y193.988 E197.57334
G1 X211.729 Y194.762 E197.62609
G1 X210.524 Y194.96 E197.66873
G1 X9.471 Y195 E204.69014
G1 X8.25 Y194.7 E204.73405
G1 X6.94 Y194.021 E204.78558
G1 X6.012 Y193.026 E204.83309
G1 X5.238 Y191.729 E204.88584
G1 X5.04 Y190.524 E204.92849
G1 X5 Y93.471 E208.31788
G1 X5.3 Y92.25 E208.36179
G1 X5.979 Y90.94 E208.41332
G1 X6.974 Y90.012 E208.46084
G1 X8.271 Y89.238 E208.51358
G1 X9.476 Y89.04 E208.55623
G1 X36.6 Y89.001 E209.50349
G1 X36.6 Y29.471 E211.58246
G1 X36.9 Y28.25 E211.62637
G1 X37.579 Y26.94 E211.6779
G0 F6000 X37.901 Y27.187
G1 F1200 X38.816 Y26.334 E211.72159
G1 X40.011 Y25.621 E211.77018
G1 X41.141 Y25.435 E211.81018
G1 X210.483 Y25.4 E217.72413
G1 X211.607 Y25.676 E217.76455
G1 X212.813 Y26.301 E217.81199
G1 X213.666 Y27.216 E217.85568
G1 X214.379 Y28.411 E217.90427
G1 X214.565 Y29.541 E217.94427
G1 X214.6 Y190.483 E223.56487
G1 X214.324 Y191.607 E223.60529
G1 X213.699 Y192.813 E223.65273
G1 X212.784 Y193.666 E223.69641
G1 X211.589 Y194.379 E223.74501
G1 X210.459 Y194.565 E223.785
G1 X9.517 Y194.6 E230.80253
G1 X8.393 Y194.324 E230.84295
G1 X7.187 Y193.699 E230.89039
G1 X6.334 Y192.784 E230.93407
G1 X5.621 Y191.589 E230.98267
G1 X5.435 Y190.459 E231.02266
G1 X5.4 Y93.517 E234.40818
G1 X5.676 Y92.393 E234.4486
G1 X6.301 Y91.187 E234.49604
G1 X7.216 Y90.334 E234.53973
G1 X8.411 Y89.621 E234.58832
G1 X9.541 Y89.435 E234.62832
G1 X37 Y89.4 E235.58727
G1 X37 Y29.517 E237.67858
G1 X37.276 Y28.393 E237.719
G1 X37.901 Y27.187 E237.76643
G0 F6000 X38.223 Y27.434
G1 F1200 X39.058 Y26.656 E237.80629
G1 X40.151 Y26.004 E237.85074
G1 X41.206 Y25.83 E237.88808
G1 X210.436 Y25.8 E243.79812
G1 X211.465 Y26.053 E243.83513
G1 X212.566 Y26.623 E243.87843
G1 X213.344 Y27.458 E243.91828
G1 X213.996 Y28.551 E243.96273
G1 X214.17 Y29.606 E244.00007
G1 X214.2 Y190.436 E249.61676
G1 X213.947 Y191.465 E249.65377
G1 X213.377 Y192.566 E249.69706
G1 X212.542 Y193.344 E249.73692
G1 X211.449 Y193.996 E249.78137
G1 X210.394 Y194.17 E249.81871
G1 X9.564 Y194.2 E256.83232
G1 X8.535 Y193.947 E256.86933
G1 X7.434 Y193.377 E256.91263
G1 X6.656 Y192.542 E256.95248
G1 X6.004 Y191.449 E256.99693
G1 X5.83 Y190.394 E257.03427
G1 X5.8 Y93.564 E260.41588
G1 X6.053 Y92.535 E260.45289
G1 X6.623 Y91.434 E260.49618
G1 X7.458 Y90.656 E260.53604
G1 X8.551 Y90.004 E260.58049
G1 X9.606 Y89.83 E260.61783
G1 X37.4 Y89.8 E261.58848
G1 X37.4 Y29.564 E263.69211
G1 X37.653 Y28.535 E263.72912
G1 X38.223 Y27.434 E263.77242
G0 F6000 X38.545 Y27.681
G1 F1200 X39.3 Y26.978 E263.80844
G1 X40.291 Y26.387 E263.84874
G1 X41.271 Y26.225 E263.88343
G1 X210.39 Y26.2 E269.7896
G1 X211.322 Y26.429 E269.82311
G1 X212.319 Y26.945 E269.86232
G1 X213.022 Y27.7 E269.89835
G1 X213.613 Y28.691 E269.93864
G1 X213.775 Y29.671 E269.97333
G1 X213.8 Y190.39 E275.58614
G1 X213.571 Y191.322 E275.61966
G1 X213.055 Y192.319 E275.65886
G1 X212.3 Y193.022 E275.69489
G1 X211.309 Y193.613 E275.73519
G1 X210.329 Y193.775 E275.76988
G1 X9.61 Y193.8 E282.77962
G1 X8.678 Y193.571 E282.81313
G1 X7.681 Y193.055 E282.85234
G1 X6.978 Y192.3 E282.88836
G1 X6.387 Y191.309 E282.92866
G1 X6.225 Y190.329 E282.96335
G1 X6.2 Y93.61 E286.34108
G1 X6.429 Y92.678 E286.3746
G1 X6.945 Y91.681 E286.4138
G1 X7.7 Y90.978 E286.44983
G1 X8.691 Y90.387 E286.49013
G1 X9.671 Y90.225 E286.52482
G1 X37.8 Y90.2 E287.50717
G1 X37.8 Y29.61 E289.62316
G1 X38.029 Y28.678 E289.65668
G1 X38.545 Y27.681 E289.69588
G0 F6000 X38.868 Y27.926
G1 F1200 X39.539 Y27.302 E289.72788
G1 X40.431 Y26.77 E289.76415
G1 X41.336 Y26.62 E289.79619
G1 X210.344 Y26.6 E295.69848
G1 X211.179 Y26.805 E295.72851
G1 X212.074 Y27.268 E295.7637
G1 X212.698 Y27.939 E295.7957
G1 X213.23 Y28.831 E295.83197
G1 X213.38 Y29.736 E295.86401
G1 X213.4 Y190.344 E301.47294
G1 X213.195 Y191.179 E301.50297
G1 X212.732 Y192.074 E301.53816
G1 X212.061 Y192.698 E301.57016
G1 X211.169 Y193.23 E301.60643
G1 X210.264 Y193.38 E301.63847
G1 X9.656 Y193.4 E308.64433
G1 X8.821 Y193.195 E308.67436
G1 X7.926 Y192.732 E308.70955
G1 X7.302 Y192.061 E308.74155
G1 X6.77 Y191.169 E308.77782
G1 X6.62 Y190.264 E308.80986
G1 X6.6 Y93.656 E312.18371
G1 X6.805 Y92.821 E312.21374
G1 X7.268 Y91.926 E312.24893
G1 X7.939 Y91.302 E312.28093
G1 X8.831 Y90.77 E312.3172
G1 X9.736 Y90.62 E312.34924
G1 X38.2 Y90.6 E313.34329
G1 X38.2 Y29.656 E315.47165
G1 X38.405 Y28.821 E315.50167
G1 X38.868 Y27.926 E315.53686
G0 F6000 X39.191 Y28.171
G1 F1200 X39.778 Y27.626 E315.56484
G1 X40.571 Y27.153 E315.59708
G1 X41.402 Y27.015 E315.6265
G1 X210.298 Y27 E321.52488
G1 X211.036 Y27.181 E321.55142
G1 X211.829 Y27.591 E321.58259
G1 X212.374 Y28.178 E321.61057
G1 X212.847 Y28.971 E321.64281
G1 X212.985 Y29.802 E321.67223
G1 X213 Y190.298 E327.27726
G1 X212.819 Y191.036 E327.30379
G1 X212.409 Y191.829 E327.33497
G1 X211.822 Y192.374 E327.36294
G1 X211.029 Y192.847 E327.39519
G1 X210.198 Y192.985 E327.42461
G1 X9.702 Y193 E334.42656
G1 X8.964 Y192.819 E334.4531
G1 X8.171 Y192.409 E334.48427
G1 X7.626 Y191.822 E334.51225
G1 X7.153 Y191.029 E334.54449
G1 X7.015 Y190.198 E334.57391
G1 X7 Y93.702 E337.94386
G1 X7.181 Y92.964 E337.97039
G1 X7.591 Y92.171 E338.00157
G1 X8.178 Y91.626 E338.02954
G1 X8.971 Y91.153 E338.06179
G1 X9.802 Y91.015 E338.09121
G1 X38.6 Y91 E339.09692
G1 X38.6 Y29.702 E341.23764
G1 X38.781 Y28.964 E341.26418
G1 X39.191 Y28.171 E341.29536
G0 F6000 X39.514 Y28.416
G1 F1200 X40.017 Y27.95 E341.3193
G1 X40.711 Y27.536 E341.34752
G1 X41.468 Y27.41 E341.37432
G1 X210.248 Y27.4 E347.26865
G1 X210.897 Y27.559 E347.29199
G1 X211.584 Y27.914 E347.31899
G1 X212.05 Y28.417 E347.34294
G1 X212.464 Y29.111 E347.37116
G1 X212.59 Y29.868 E347.39796
G1 X212.6 Y190.248 E352.99894
G1 X212.441 Y190.897 E353.02227
G1 X212.086 Y191.584 E353.04928
G1 X211.583 Y192.05 E353.07322
G1 X210.889 Y192.464 E353.10145
G1 X210.132 Y192.59 E353.12825
G1 X9.752 Y192.6 E360.12614
G1 X9.103 Y192.441 E360.14948
G1 X8.416 Y192.086 E360.17649
G1 X7.95 Y191.583 E360.20043
G1 X7.536 Y190.889 E360.22865
G1 X7.41 Y190.132 E360.25545
G1 X7.4 Y93.752 E363.62135
G1 X7.559 Y93.103 E363.64468
G1 X7.914 Y92.416 E363.67169
G1 X8.417 Y91.95 E363.69563
G1 X9.111 Y91.536 E363.72386
G1 X9.868 Y91.41 E363.75066
G1 X39 Y91.4 E364.76804
G1 X39 Y29.752 E366.92098
G1 X39.159 Y29.103 E366.94432
G1 X39.514 Y28.416 E366.97132
G0 F6000 X39.837 Y28.662
G1 F1200 X40.256 Y28.274 E366.99126
G1 X40.851 Y27.919 E367.01546
G1 X41.534 Y27.805 E367.03964
G1 X210.198 Y27.8 E372.92992
G1 X210.758 Y27.937 E372.95005
G1 X211.338 Y28.237 E372.97286
G1 X211.726 Y28.656 E372.9928
G1 X212.081 Y29.251 E373.017
G1 X212.195 Y29.934 E373.04118
G1 X212.2 Y190.198 E378.6381
G1 X212.063 Y190.758 E378.65824
G1 X211.763 Y191.338 E378.68104
G1 X211.344 Y191.726 E378.70098
G1 X210.749 Y192.081 E378.72518
G1 X210.066 Y192.195 E378.74936
G1 X9.802 Y192.2 E385.74321
G1 X9.242 Y192.063 E385.76335
G1 X8.662 Y191.763 E385.78615
G1 X8.274 Y191.344 E385.80609
G1 X7.919 Y190.749 E385.83029
G1 X7.805 Y190.066 E385.85447
G1 X7.8 Y93.802 E389.21631
G1 X7.937 Y93.242 E389.23645
G1 X8.237 Y92.662 E389.25925
G1 X8.656 Y92.274 E389.2792
G1 X9.251 Y91.919 E389.30339
G1 X9.934 Y91.805 E389.32757
G1 X39.4 Y91.8 E390.35662
G1 X39.4 Y29.802 E392.52178
G1 X39.537 Y29.242 E392.54192
G1 X39.837 Y28.662 E392.56472
G0 F6000 X40.16 Y28.908
G1 F1200 X40.498 Y28.595 E392.58081
G1 X40.989 Y28.302 E392.60078
G1 X41.6 Y28.2 E392.62241
G1 X210.148 Y28.2 E398.50864
G1 X210.619 Y28.315 E398.52557
G1 X211.092 Y28.56 E398.54417
G1 X211.405 Y28.898 E398.56026
G1 X211.698 Y29.389 E398.58023
G1 X211.8 Y30 E398.60186
